( pcb2gcode 1.1.4 )

G94     ( Inches per minute feed rate. )
G20     ( Units == INCHES.             )
G90     ( Absolute coordinates.        )
S20000  ( RPM spindle speed.           )
M3      ( Spindle on clockwise.        )

G64 P0.00500 ( set maximum deviation from commanded toolpath )

G04 P0 ( dwell for no time -- G64 should not smooth over this point )
G00 Z0.08000 ( retract )

G00 X1.27600 Y3.66300 ( rapid move to begin. )
G01 Z-0.00800 F6.00000 ( plunge. )
G04 P0 ( dwell for no time -- G64 should not smooth over this point )
X1.27600 Y3.66300
X1.27400 Y3.66300
X1.27400 Y3.66200
X1.27200 Y3.66200
X1.27200 Y3.66100
X1.27100 Y3.66100
X1.27100 Y3.66000
X1.26900 Y3.66000
X1.26900 Y3.65900
X1.26700 Y3.65900
X1.26700 Y3.65800
X1.26500 Y3.65800
X1.26500 Y3.65700
X1.26300 Y3.65700
X1.26300 Y3.65600
X1.26100 Y3.65600
X1.26100 Y3.65500
X1.26000 Y3.65500
X1.26000 Y3.65400
X1.25900 Y3.65400
X1.25900 Y3.65300
X1.25800 Y3.65300
X1.25800 Y3.65200
X1.25600 Y3.65200
X1.25600 Y3.65100
X1.25500 Y3.65100
X1.25500 Y3.65000
X1.25400 Y3.65000
X1.25400 Y3.64900
X1.25300 Y3.64900
X1.25300 Y3.64800
X1.25200 Y3.64800
X1.25200 Y3.64700
X1.25000 Y3.64700
X1.25000 Y3.64600
X1.24900 Y3.64600
X1.24900 Y3.64500
X1.24800 Y3.64500
X1.24800 Y3.64400
X1.24700 Y3.64400
X1.24700 Y3.64300
X1.24500 Y3.64300
X1.24500 Y3.64200
X1.24400 Y3.64200
X1.24400 Y3.64100
X1.24300 Y3.64100
X1.24300 Y3.64000
X1.24200 Y3.64000
X1.24200 Y3.63900
X1.24100 Y3.63900
X1.24100 Y3.63800
X1.24000 Y3.63800
X1.24000 Y3.63700
X1.23900 Y3.63700
X1.23900 Y3.63600
X1.23800 Y3.63600
X1.23800 Y3.63500
X1.23700 Y3.63500
X1.23700 Y3.63400
X1.23600 Y3.63400
X1.23600 Y3.63200
X1.23500 Y3.63200
X1.23500 Y3.63100
X1.23400 Y3.63100
X1.23400 Y3.63000
X1.23300 Y3.63000
X1.23300 Y3.62900
X1.23200 Y3.62900
X1.23200 Y3.62700
X1.23100 Y3.62700
X1.23100 Y3.62600
X1.23000 Y3.62600
X1.23000 Y3.62500
X1.22900 Y3.62500
X1.22900 Y3.62400
X1.22800 Y3.62400
X1.22800 Y3.62300
X1.22700 Y3.62300
X1.22700 Y3.62100
X1.22600 Y3.62100
X1.22600 Y3.62000
X1.22500 Y3.62000
X1.22500 Y3.61900
X1.22400 Y3.61900
X1.22400 Y3.61800
X1.22300 Y3.61800
X1.22300 Y3.61600
X1.22200 Y3.61600
X1.22200 Y3.61400
X1.22100 Y3.61400
X1.22100 Y3.61200
X1.22000 Y3.61200
X1.22000 Y3.61000
X1.21900 Y3.61000
X1.21900 Y3.60800
X1.21800 Y3.60800
X1.21800 Y3.60700
X1.21700 Y3.60700
X1.21700 Y3.60500
X1.21600 Y3.60500
X1.21600 Y3.60300
X1.21500 Y3.60300
X1.21500 Y3.60100
X1.21400 Y3.60100
X1.21400 Y3.59900
X1.21300 Y3.59900
X1.21300 Y3.59700
X1.21200 Y3.59700
X1.21200 Y3.59500
X1.21100 Y3.59500
X1.21100 Y3.59300
X1.21000 Y3.59300
X1.21000 Y3.59000
X1.20900 Y3.59000
X1.20900 Y3.58600
X1.20800 Y3.58600
X1.20800 Y3.58300
X1.20700 Y3.58300
X1.20700 Y3.58000
X1.20600 Y3.58000
X1.20600 Y3.57700
X1.20500 Y3.57700
X1.20500 Y3.57400
X1.20400 Y3.57400
X1.20400 Y3.57000
X1.20300 Y3.57000
X1.20300 Y3.56400
X1.20200 Y3.56400
X1.20200 Y3.55400
X1.20100 Y3.55400
X1.20100 Y3.54400
X1.20000 Y3.54400
X1.20000 Y3.50700
X1.20100 Y3.50700
X1.20100 Y3.49700
X1.20200 Y3.49700
X1.20200 Y3.48700
X1.20300 Y3.48700
X1.20300 Y3.48100
X1.20400 Y3.48100
X1.20400 Y3.47700
X1.20500 Y3.47700
X1.20500 Y3.47400
X1.20600 Y3.47400
X1.20600 Y3.47100
X1.20700 Y3.47100
X1.20700 Y3.46800
X1.20800 Y3.46800
X1.20800 Y3.46500
X1.20900 Y3.46500
X1.20900 Y3.46100
X1.21000 Y3.46100
X1.21000 Y3.45800
X1.21100 Y3.45800
X1.21100 Y3.45600
X1.21200 Y3.45600
X1.21200 Y3.45400
X1.21300 Y3.45400
X1.21300 Y3.45200
X1.21400 Y3.45200
X1.21400 Y3.45000
X1.21500 Y3.45000
X1.21500 Y3.44800
X1.21600 Y3.44800
X1.21600 Y3.44600
X1.21700 Y3.44600
X1.21700 Y3.44400
X1.21800 Y3.44400
X1.21800 Y3.44300
X1.21900 Y3.44300
X1.21900 Y3.44100
X1.22000 Y3.44100
X1.22000 Y3.43900
X1.22100 Y3.43900
X1.22100 Y3.43700
X1.22200 Y3.43700
X1.22200 Y3.43500
X1.22300 Y3.43500
X1.22300 Y3.43300
X1.22400 Y3.43300
X1.22400 Y3.43200
X1.22500 Y3.43200
X1.22500 Y3.43100
X1.22600 Y3.43100
X1.22600 Y3.43000
X1.22700 Y3.43000
X1.22700 Y3.42800
X1.22800 Y3.42800
X1.22800 Y3.42700
X1.22900 Y3.42700
X1.22900 Y3.42600
X1.23000 Y3.42600
X1.23000 Y3.42500
X1.23100 Y3.42500
X1.23100 Y3.42400
X1.23200 Y3.42400
X1.23200 Y3.42200
X1.23300 Y3.42200
X1.23300 Y3.42100
X1.23400 Y3.42100
X1.23400 Y3.42000
X1.23500 Y3.42000
X1.23500 Y3.41900
X1.23600 Y3.41900
X1.23600 Y3.41700
X1.23700 Y3.41700
X1.23700 Y3.41600
X1.23800 Y3.41600
X1.23800 Y3.41500
X1.23900 Y3.41500
X1.23900 Y3.41400
X1.24000 Y3.41400
X1.24000 Y3.41300
X1.24100 Y3.41300
X1.24100 Y3.41200
X1.24200 Y3.41200
X1.24200 Y3.41100
X1.24300 Y3.41100
X1.24300 Y3.41000
X1.24400 Y3.41000
X1.24400 Y3.40900
X1.24500 Y3.40900
X1.24500 Y3.40800
X1.24700 Y3.40800
X1.24700 Y3.40700
X1.24800 Y3.40700
X1.24800 Y3.40600
X1.24900 Y3.40600
X1.24900 Y3.40500
X1.25000 Y3.40500
X1.25000 Y3.40400
X1.25200 Y3.40400
X1.25200 Y3.40300
X1.25300 Y3.40300
X1.25300 Y3.40200
X1.25400 Y3.40200
X1.25400 Y3.40100
X1.25500 Y3.40100
X1.25500 Y3.40000
X1.25600 Y3.40000
X1.25600 Y3.39900
X1.25800 Y3.39900
X1.25800 Y3.39800
X1.25900 Y3.39800
X1.25900 Y3.39700
X1.26000 Y3.39700
X1.26000 Y3.39600
X1.26100 Y3.39600
X1.26100 Y3.39500
X1.26300 Y3.39500
X1.26300 Y3.39400
X1.26500 Y3.39400
X1.26500 Y3.39300
X1.26700 Y3.39300
X1.26700 Y3.39200
X1.26900 Y3.39200
X1.26900 Y3.39100
X1.27100 Y3.39100
X1.27100 Y3.39000
X1.27200 Y3.39000
X1.27200 Y3.38900
X1.27400 Y3.38900
X1.27400 Y3.38800
X1.27600 Y3.38800
X1.27600 Y3.38700
X1.27800 Y3.38700
X1.27800 Y3.38600
X1.28000 Y3.38600
X1.28000 Y3.38500
X1.28200 Y3.38500
X1.28200 Y3.38400
X1.28400 Y3.38400
X1.28400 Y3.38300
X1.28600 Y3.38300
X1.28600 Y3.38200
X1.28900 Y3.38200
X1.28900 Y3.38100
X1.29300 Y3.38100
X1.29300 Y3.38000
X1.29600 Y3.38000
X1.29600 Y3.37900
X1.29900 Y3.37900
X1.29900 Y3.37800
X1.30200 Y3.37800
X1.30200 Y3.37700
X1.30500 Y3.37700
X1.30500 Y3.37600
X1.30900 Y3.37600
X1.30900 Y3.37500
X1.31500 Y3.37500
X1.31500 Y3.37400
X1.32500 Y3.37400
X1.32500 Y3.37300
X1.33500 Y3.37300
X1.33500 Y3.37200
X1.37200 Y3.37200
X1.37200 Y3.37300
X1.38200 Y3.37300
X1.38200 Y3.37400
X1.39200 Y3.37400
X1.39200 Y3.37500
X1.39800 Y3.37500
X1.39800 Y3.37600
X1.40200 Y3.37600
X1.40200 Y3.37700
X1.40500 Y3.37700
X1.40500 Y3.37800
X1.40800 Y3.37800
X1.40800 Y3.37900
X1.41100 Y3.37900
X1.41100 Y3.38000
X1.41400 Y3.38000
X1.41400 Y3.38100
X1.41800 Y3.38100
X1.41800 Y3.38200
X1.42100 Y3.38200
X1.42100 Y3.38300
X1.42400 Y3.38300
X1.42400 Y3.38400
X1.42500 Y3.38400
X1.42500 Y3.38500
X1.42700 Y3.38500
X1.42700 Y3.38600
X1.42900 Y3.38600
X1.42900 Y3.38700
X1.43100 Y3.38700
X1.43100 Y3.38800
X1.43300 Y3.38800
X1.43300 Y3.38900
X1.43500 Y3.38900
X1.43500 Y3.39000
X1.43600 Y3.39000
X1.43600 Y3.39100
X1.43800 Y3.39100
X1.43800 Y3.39200
X1.44000 Y3.39200
X1.44000 Y3.39300
X1.44200 Y3.39300
X1.44200 Y3.39400
X1.44400 Y3.39400
X1.44400 Y3.39500
X1.44600 Y3.39500
X1.44600 Y3.39600
X1.44700 Y3.39600
X1.44700 Y3.39700
X1.44800 Y3.39700
X1.44800 Y3.39800
X1.44900 Y3.39800
X1.44900 Y3.39900
X1.45100 Y3.39900
X1.45100 Y3.40000
X1.45200 Y3.40000
X1.45200 Y3.40100
X1.45300 Y3.40100
X1.45300 Y3.40200
X1.45400 Y3.40200
X1.45400 Y3.40300
X1.45500 Y3.40300
X1.45500 Y3.40400
X1.45700 Y3.40400
X1.45700 Y3.40500
X1.45800 Y3.40500
X1.45800 Y3.40600
X1.45900 Y3.40600
X1.45900 Y3.40700
X1.46000 Y3.40700
X1.46000 Y3.40800
X1.46200 Y3.40800
X1.46200 Y3.40900
X1.46300 Y3.40900
X1.46300 Y3.41000
X1.46400 Y3.41000
X1.46400 Y3.41100
X1.46500 Y3.41100
X1.46500 Y3.41200
X1.46600 Y3.41200
X1.46600 Y3.41300
X1.46700 Y3.41300
X1.46700 Y3.41400
X1.46800 Y3.41400
X1.46800 Y3.41500
X1.46900 Y3.41500
X1.46900 Y3.41600
X1.47000 Y3.41600
X1.47000 Y3.41700
X1.47100 Y3.41700
X1.47100 Y3.41900
X1.47200 Y3.41900
X1.47200 Y3.42000
X1.47300 Y3.42000
X1.47300 Y3.42100
X1.47400 Y3.42100
X1.47400 Y3.42200
X1.47500 Y3.42200
X1.47500 Y3.42400
X1.47600 Y3.42400
X1.47600 Y3.42500
X1.47700 Y3.42500
X1.47700 Y3.42600
X1.47800 Y3.42600
X1.47800 Y3.42700
X1.47900 Y3.42700
X1.47900 Y3.42800
X1.48000 Y3.42800
X1.48000 Y3.43000
X1.48100 Y3.43000
X1.48100 Y3.43100
X1.48200 Y3.43100
X1.48200 Y3.43200
X1.48300 Y3.43200
X1.48300 Y3.43300
X1.48400 Y3.43300
X1.48400 Y3.43500
X1.48500 Y3.43500
X1.48500 Y3.43700
X1.48600 Y3.43700
X1.48600 Y3.43900
X1.48700 Y3.43900
X1.48700 Y3.44100
X1.48800 Y3.44100
X1.48800 Y3.44300
X1.48900 Y3.44300
X1.48900 Y3.44400
X1.49000 Y3.44400
X1.49000 Y3.44600
X1.49100 Y3.44600
X1.49100 Y3.44800
X1.49200 Y3.44800
X1.49200 Y3.45000
X1.49300 Y3.45000
X1.49300 Y3.45200
X1.49400 Y3.45200
X1.49400 Y3.45400
X1.49500 Y3.45400
X1.49500 Y3.45500
X1.49600 Y3.45500
X1.49600 Y3.45800
X1.49700 Y3.45800
X1.49700 Y3.46100
X1.49800 Y3.46100
X1.49800 Y3.46500
X1.49900 Y3.46500
X1.49900 Y3.46800
X1.50000 Y3.46800
X1.50000 Y3.47100
X1.50100 Y3.47100
X1.50100 Y3.47400
X1.50200 Y3.47400
X1.50200 Y3.47700
X1.50300 Y3.47700
X1.50300 Y3.48100
X1.50400 Y3.48100
X1.50400 Y3.48700
X1.50500 Y3.48700
X1.50500 Y3.49700
X1.50600 Y3.49700
X1.50600 Y3.50700
X1.50700 Y3.50700
X1.50700 Y3.54400
X1.50600 Y3.54400
X1.50600 Y3.55400
X1.50500 Y3.55400
X1.50500 Y3.56400
X1.50400 Y3.56400
X1.50400 Y3.57000
X1.50300 Y3.57000
X1.50300 Y3.57400
X1.50200 Y3.57400
X1.50200 Y3.57700
X1.50100 Y3.57700
X1.50100 Y3.58000
X1.50000 Y3.58000
X1.50000 Y3.58300
X1.49900 Y3.58300
X1.49900 Y3.58600
X1.49800 Y3.58600
X1.49800 Y3.59000
X1.49700 Y3.59000
X1.49700 Y3.59300
X1.49600 Y3.59300
X1.49600 Y3.59600
X1.49500 Y3.59600
X1.49500 Y3.59700
X1.49400 Y3.59700
X1.49400 Y3.59900
X1.49300 Y3.59900
X1.49300 Y3.60100
X1.49200 Y3.60100
X1.49200 Y3.60300
X1.49100 Y3.60300
X1.49100 Y3.60500
X1.49000 Y3.60500
X1.49000 Y3.60700
X1.48900 Y3.60700
X1.48900 Y3.60800
X1.48800 Y3.60800
X1.48800 Y3.61000
X1.48700 Y3.61000
X1.48700 Y3.61200
X1.48600 Y3.61200
X1.48600 Y3.61400
X1.48500 Y3.61400
X1.48500 Y3.61600
X1.48400 Y3.61600
X1.48400 Y3.61800
X1.48300 Y3.61800
X1.48300 Y3.61900
X1.48200 Y3.61900
X1.48200 Y3.62000
X1.48100 Y3.62000
X1.48100 Y3.62100
X1.48000 Y3.62100
X1.48000 Y3.62300
X1.47900 Y3.62300
X1.47900 Y3.62400
X1.47800 Y3.62400
X1.47800 Y3.62500
X1.47700 Y3.62500
X1.47700 Y3.62600
X1.47600 Y3.62600
X1.47600 Y3.62700
X1.47500 Y3.62700
X1.47500 Y3.62900
X1.47400 Y3.62900
X1.47400 Y3.63000
X1.47300 Y3.63000
X1.47300 Y3.63100
X1.47200 Y3.63100
X1.47200 Y3.63200
X1.47100 Y3.63200
X1.47100 Y3.63400
X1.47000 Y3.63400
X1.47000 Y3.63500
X1.46900 Y3.63500
X1.46900 Y3.63600
X1.46800 Y3.63600
X1.46800 Y3.63700
X1.46700 Y3.63700
X1.46700 Y3.63800
X1.46600 Y3.63800
X1.46600 Y3.63900
X1.46500 Y3.63900
X1.46500 Y3.64000
X1.46400 Y3.64000
X1.46400 Y3.64100
X1.46300 Y3.64100
X1.46300 Y3.64200
X1.46200 Y3.64200
X1.46200 Y3.64300
X1.46000 Y3.64300
X1.46000 Y3.64400
X1.45900 Y3.64400
X1.45900 Y3.64500
X1.45800 Y3.64500
X1.45800 Y3.64600
X1.45700 Y3.64600
X1.45700 Y3.64700
X1.45500 Y3.64700
X1.45500 Y3.64800
X1.45400 Y3.64800
X1.45400 Y3.64900
X1.45300 Y3.64900
X1.45300 Y3.65000
X1.45200 Y3.65000
X1.45200 Y3.65100
X1.45100 Y3.65100
X1.45100 Y3.65200
X1.44900 Y3.65200
X1.44900 Y3.65300
X1.44800 Y3.65300
X1.44800 Y3.65400
X1.44700 Y3.65400
X1.44700 Y3.65500
X1.44600 Y3.65500
X1.44600 Y3.65600
X1.44400 Y3.65600
X1.44400 Y3.65700
X1.44200 Y3.65700
X1.44200 Y3.65800
X1.44000 Y3.65800
X1.44000 Y3.65900
X1.43800 Y3.65900
X1.43800 Y3.66000
X1.43600 Y3.66000
X1.43600 Y3.66100
X1.43500 Y3.66100
X1.43500 Y3.66200
X1.43300 Y3.66200
X1.43300 Y3.66300
X1.43100 Y3.66300
X1.43100 Y3.66400
X1.42900 Y3.66400
X1.42900 Y3.66500
X1.42700 Y3.66500
X1.42700 Y3.66600
X1.42500 Y3.66600
X1.42500 Y3.66700
X1.42400 Y3.66700
X1.42400 Y3.66800
X1.42100 Y3.66800
X1.42100 Y3.66900
X1.41800 Y3.66900
X1.41800 Y3.67000
X1.41400 Y3.67000
X1.41400 Y3.67100
X1.41100 Y3.67100
X1.41100 Y3.67200
X1.40800 Y3.67200
X1.40800 Y3.67300
X1.40500 Y3.67300
X1.40500 Y3.67400
X1.40200 Y3.67400
X1.40200 Y3.67500
X1.39800 Y3.67500
X1.39800 Y3.67600
X1.39200 Y3.67600
X1.39200 Y3.67700
X1.38200 Y3.67700
X1.38200 Y3.67800
X1.37200 Y3.67800
X1.37200 Y3.67900
X1.33500 Y3.67900
X1.33500 Y3.67800
X1.32500 Y3.67800
X1.32500 Y3.67700
X1.31500 Y3.67700
X1.31500 Y3.67600
X1.30900 Y3.67600
X1.30900 Y3.67500
X1.30500 Y3.67500
X1.30500 Y3.67400
X1.30200 Y3.67400
X1.30200 Y3.67300
X1.29900 Y3.67300
X1.29900 Y3.67200
X1.29600 Y3.67200
X1.29600 Y3.67100
X1.29300 Y3.67100
X1.29300 Y3.67000
X1.28900 Y3.67000
X1.28900 Y3.66900
X1.28600 Y3.66900
X1.28600 Y3.66800
X1.28400 Y3.66800
X1.28400 Y3.66700
X1.28200 Y3.66700
X1.28200 Y3.66600
X1.28000 Y3.66600
X1.28000 Y3.66500
X1.27800 Y3.66500
X1.27800 Y3.66400
X1.27600 Y3.66400
X1.27600 Y3.66300
G04 P0 ( dwell for no time -- G64 should not smooth over this point )
G00 Z0.08000 ( retract )

G00 X2.90700 Y3.51200 ( rapid move to begin. )
G01 Z-0.00800 F6.00000 ( plunge. )
G04 P0 ( dwell for no time -- G64 should not smooth over this point )
X2.90700 Y3.51200
X2.90600 Y3.51200
X2.90600 Y3.51000
X2.90500 Y3.51000
X2.90500 Y3.50900
X2.90400 Y3.50900
X2.90400 Y3.50700
X2.90300 Y3.50700
X2.90300 Y3.50300
X2.90200 Y3.50300
X2.90200 Y3.50000
X2.90100 Y3.50000
X2.90100 Y3.45100
X2.90200 Y3.45100
X2.90200 Y3.44800
X2.90300 Y3.44800
X2.90300 Y3.44400
X2.90400 Y3.44400
X2.90400 Y3.44200
X2.90500 Y3.44200
X2.90500 Y3.44100
X2.90600 Y3.44100
X2.90600 Y3.43900
X2.90700 Y3.43900
X2.90700 Y3.43700
X2.90800 Y3.43700
X2.90800 Y3.43600
X2.90900 Y3.43600
X2.90900 Y3.43500
X2.91000 Y3.43500
X2.91000 Y3.43400
X2.91100 Y3.43400
X2.91100 Y3.43300
X2.91200 Y3.43300
X2.91200 Y3.43200
X2.91300 Y3.43200
X2.91300 Y3.43100
X2.91500 Y3.43100
X2.91500 Y3.43000
X2.91600 Y3.43000
X2.91600 Y3.42900
X2.91800 Y3.42900
X2.91800 Y3.42800
X2.92000 Y3.42800
X2.92000 Y3.42700
X2.92100 Y3.42700
X2.92100 Y3.42600
X2.92300 Y3.42600
X2.92300 Y3.42500
X2.92600 Y3.42500
X2.92600 Y3.42400
X2.93200 Y3.42400
X2.93200 Y3.42300
X2.97500 Y3.42300
X2.97500 Y3.42400
X2.98100 Y3.42400
X2.98100 Y3.42500
X2.98400 Y3.42500
X2.98400 Y3.42600
X2.98600 Y3.42600
X2.98600 Y3.42700
X2.98700 Y3.42700
X2.98700 Y3.42800
X2.98900 Y3.42800
X2.98900 Y3.42900
X2.99100 Y3.42900
X2.99100 Y3.43000
X2.99200 Y3.43000
X2.99200 Y3.43100
X2.99400 Y3.43100
X2.99400 Y3.43200
X2.99500 Y3.43200
X2.99500 Y3.43300
X2.99600 Y3.43300
X2.99600 Y3.43400
X2.99700 Y3.43400
X2.99700 Y3.43500
X2.99800 Y3.43500
X2.99800 Y3.43600
X2.99900 Y3.43600
X2.99900 Y3.43700
X3.00000 Y3.43700
X3.00000 Y3.43900
X3.00100 Y3.43900
X3.00100 Y3.44000
X3.00200 Y3.44000
X3.00200 Y3.44200
X3.00300 Y3.44200
X3.00300 Y3.44400
X3.00400 Y3.44400
X3.00400 Y3.44700
X3.00500 Y3.44700
X3.00500 Y3.45100
X3.00600 Y3.45100
X3.00600 Y3.50000
X3.00500 Y3.50000
X3.00500 Y3.50400
X3.00400 Y3.50400
X3.00400 Y3.50700
X3.00300 Y3.50700
X3.00300 Y3.50900
X3.00200 Y3.50900
X3.00200 Y3.51100
X3.00100 Y3.51100
X3.00100 Y3.51200
X3.00000 Y3.51200
X3.00000 Y3.51400
X2.99900 Y3.51400
X2.99900 Y3.51500
X2.99800 Y3.51500
X2.99800 Y3.51600
X2.99700 Y3.51600
X2.99700 Y3.51700
X2.99600 Y3.51700
X2.99600 Y3.51800
X2.99500 Y3.51800
X2.99500 Y3.51900
X2.99400 Y3.51900
X2.99400 Y3.52000
X2.99200 Y3.52000
X2.99200 Y3.52100
X2.99100 Y3.52100
X2.99100 Y3.52200
X2.98900 Y3.52200
X2.98900 Y3.52300
X2.98700 Y3.52300
X2.98700 Y3.52400
X2.98600 Y3.52400
X2.98600 Y3.52500
X2.98400 Y3.52500
X2.98400 Y3.52600
X2.98100 Y3.52600
X2.98100 Y3.52700
X2.97500 Y3.52700
X2.97500 Y3.52800
X2.93200 Y3.52800
X2.93200 Y3.52700
X2.92600 Y3.52700
X2.92600 Y3.52600
X2.92300 Y3.52600
X2.92300 Y3.52500
X2.92100 Y3.52500
X2.92100 Y3.52400
X2.92000 Y3.52400
X2.92000 Y3.52300
X2.91800 Y3.52300
X2.91800 Y3.52200
X2.91600 Y3.52200
X2.91600 Y3.52100
X2.91500 Y3.52100
X2.91500 Y3.52000
X2.91300 Y3.52000
X2.91300 Y3.51900
X2.91200 Y3.51900
X2.91200 Y3.51800
X2.91100 Y3.51800
X2.91100 Y3.51700
X2.91000 Y3.51700
X2.91000 Y3.51600
X2.90900 Y3.51600
X2.90900 Y3.51500
X2.90800 Y3.51500
X2.90800 Y3.51400
X2.90700 Y3.51400
X2.90700 Y3.51200
G04 P0 ( dwell for no time -- G64 should not smooth over this point )
G00 Z0.08000 ( retract )

G00 X2.65100 Y3.51200 ( rapid move to begin. )
G01 Z-0.00800 F6.00000 ( plunge. )
G04 P0 ( dwell for no time -- G64 should not smooth over this point )
X2.65100 Y3.51200
X2.65000 Y3.51200
X2.65000 Y3.51000
X2.64900 Y3.51000
X2.64900 Y3.50900
X2.64800 Y3.50900
X2.64800 Y3.50700
X2.64700 Y3.50700
X2.64700 Y3.50300
X2.64600 Y3.50300
X2.64600 Y3.50000
X2.64500 Y3.50000
X2.64500 Y3.45100
X2.64600 Y3.45100
X2.64600 Y3.44800
X2.64700 Y3.44800
X2.64700 Y3.44400
X2.64800 Y3.44400
X2.64800 Y3.44200
X2.64900 Y3.44200
X2.64900 Y3.44100
X2.65000 Y3.44100
X2.65000 Y3.43900
X2.65100 Y3.43900
X2.65100 Y3.43700
X2.65200 Y3.43700
X2.65200 Y3.43600
X2.65300 Y3.43600
X2.65300 Y3.43500
X2.65400 Y3.43500
X2.65400 Y3.43400
X2.65500 Y3.43400
X2.65500 Y3.43300
X2.65600 Y3.43300
X2.65600 Y3.43200
X2.65700 Y3.43200
X2.65700 Y3.43100
X2.65900 Y3.43100
X2.65900 Y3.43000
X2.66000 Y3.43000
X2.66000 Y3.42900
X2.66200 Y3.42900
X2.66200 Y3.42800
X2.66400 Y3.42800
X2.66400 Y3.42700
X2.66500 Y3.42700
X2.66500 Y3.42600
X2.66700 Y3.42600
X2.66700 Y3.42500
X2.67000 Y3.42500
X2.67000 Y3.42400
X2.67600 Y3.42400
X2.67600 Y3.42300
X2.70400 Y3.42300
X2.70400 Y3.42200
X2.70500 Y3.42200
X2.70500 Y3.42100
X2.70600 Y3.42100
X2.70600 Y3.42000
X2.70700 Y3.42000
X2.70700 Y3.41900
X2.70800 Y3.41900
X2.70800 Y3.41800
X2.71000 Y3.41800
X2.71000 Y3.41700
X2.71100 Y3.41700
X2.71100 Y3.41600
X2.71200 Y3.41600
X2.71200 Y3.41500
X2.71300 Y3.41500
X2.71300 Y3.41400
X2.71400 Y3.41400
X2.71400 Y3.41300
X2.71500 Y3.41300
X2.71500 Y3.41200
X2.71600 Y3.41200
X2.71600 Y3.41100
X2.71700 Y3.41100
X2.71700 Y3.41000
X2.71800 Y3.41000
X2.71800 Y3.40900
X2.71900 Y3.40900
X2.71900 Y3.40800
X2.72000 Y3.40800
X2.72000 Y3.40700
X2.72100 Y3.40700
X2.72100 Y3.40600
X2.72200 Y3.40600
X2.72200 Y3.40500
X2.72400 Y3.40500
X2.72400 Y3.40400
X2.72500 Y3.40400
X2.72500 Y3.40300
X2.72600 Y3.40300
X2.72600 Y3.40200
X2.72700 Y3.40200
X2.72700 Y3.40100
X2.72800 Y3.40100
X2.72800 Y3.40000
X2.72900 Y3.40000
X2.72900 Y3.39900
X2.73000 Y3.39900
X2.73000 Y3.39800
X2.73100 Y3.39800
X2.73100 Y3.39700
X2.73200 Y3.39700
X2.73200 Y3.39600
X2.73300 Y3.39600
X2.73300 Y3.39500
X2.73400 Y3.39500
X2.73400 Y3.39400
X2.73500 Y3.39400
X2.73500 Y3.39300
X2.73600 Y3.39300
X2.73600 Y3.39200
X2.73800 Y3.39200
X2.73800 Y3.39100
X2.73900 Y3.39100
X2.73900 Y3.39000
X2.74000 Y3.39000
X2.74000 Y3.38900
X2.74100 Y3.38900
X2.74100 Y3.38800
X2.74200 Y3.38800
X2.74200 Y3.38700
X2.74300 Y3.38700
X2.74300 Y3.38600
X2.74400 Y3.38600
X2.74400 Y3.38500
X2.74500 Y3.38500
X2.74500 Y3.38400
X2.74600 Y3.38400
X2.74600 Y3.38300
X2.74700 Y3.38300
X2.74700 Y3.38200
X2.74800 Y3.38200
X2.74800 Y3.38100
X2.74900 Y3.38100
X2.74900 Y3.38000
X2.75000 Y3.38000
X2.75000 Y3.37900
X2.75100 Y3.37900
X2.75100 Y3.37800
X2.75300 Y3.37800
X2.75300 Y3.37700
X2.75400 Y3.37700
X2.75400 Y3.37600
X2.75500 Y3.37600
X2.75500 Y3.37500
X2.75600 Y3.37500
X2.75600 Y3.37400
X2.75700 Y3.37400
X2.75700 Y3.37300
X2.75800 Y3.37300
X2.75800 Y3.37200
X2.75900 Y3.37200
X2.75900 Y3.37100
X2.76000 Y3.37100
X2.76000 Y3.37000
X2.76100 Y3.37000
X2.76100 Y3.36900
X2.76200 Y3.36900
X2.76200 Y3.36800
X2.76300 Y3.36800
X2.76300 Y3.36700
X2.76400 Y3.36700
X2.76400 Y3.36600
X2.76500 Y3.36600
X2.76500 Y3.36500
X2.76700 Y3.36500
X2.76700 Y3.36400
X2.76800 Y3.36400
X2.76800 Y3.36300
X2.76900 Y3.36300
X2.76900 Y3.36200
X2.77000 Y3.36200
X2.77000 Y3.36100
X2.77100 Y3.36100
X2.77100 Y3.36000
X2.77200 Y3.36000
X2.77200 Y3.35900
X2.77300 Y3.35900
X2.77300 Y3.35800
X2.77400 Y3.35800
X2.77400 Y3.35700
X2.77500 Y3.35700
X2.77500 Y3.35600
X2.77600 Y3.35600
X2.77600 Y3.35500
X2.77700 Y3.35500
X2.77700 Y3.19500
X2.77600 Y3.19500
X2.77600 Y3.19400
X2.77500 Y3.19400
X2.77500 Y3.19300
X2.77400 Y3.19300
X2.77400 Y3.19200
X2.77300 Y3.19200
X2.77300 Y3.19100
X2.77200 Y3.19100
X2.77200 Y3.19000
X2.77100 Y3.19000
X2.77100 Y3.18900
X2.77000 Y3.18900
X2.77000 Y3.18800
X2.76900 Y3.18800
X2.76900 Y3.18700
X2.76700 Y3.18700
X2.76700 Y3.18600
X2.76600 Y3.18600
X2.76600 Y3.18500
X2.76500 Y3.18500
X2.76500 Y3.18400
X2.76400 Y3.18400
X2.76400 Y3.18300
X2.76300 Y3.18300
X2.76300 Y3.18200
X2.76200 Y3.18200
X2.76200 Y3.18100
X2.76100 Y3.18100
X2.76100 Y3.18000
X2.76000 Y3.18000
X2.76000 Y3.17900
X2.75900 Y3.17900
X2.75900 Y3.17800
X2.75800 Y3.17800
X2.75800 Y3.17700
X2.75700 Y3.17700
X2.75700 Y3.17600
X2.75500 Y3.17600
X2.75500 Y3.17500
X2.75400 Y3.17500
X2.75400 Y3.17400
X2.75300 Y3.17400
X2.75300 Y3.17300
X2.75200 Y3.17300
X2.75200 Y3.17200
X2.75100 Y3.17200
X2.75100 Y3.17100
X2.75000 Y3.17100
X2.75000 Y3.17000
X2.74900 Y3.17000
X2.74900 Y3.16900
X2.74800 Y3.16900
X2.74800 Y3.16800
X2.74700 Y3.16800
X2.74700 Y3.16700
X2.74600 Y3.16700
X2.74600 Y3.16600
X2.74500 Y3.16600
X2.74500 Y3.16500
X2.74400 Y3.16500
X2.74400 Y3.16400
X2.74200 Y3.16400
X2.74200 Y3.16300
X2.74100 Y3.16300
X2.74100 Y3.16200
X2.74000 Y3.16200
X2.74000 Y3.16100
X2.73900 Y3.16100
X2.73900 Y3.16000
X2.73800 Y3.16000
X2.73800 Y3.15900
X2.73700 Y3.15900
X2.73700 Y3.15800
X2.73600 Y3.15800
X2.73600 Y3.15700
X2.73500 Y3.15700
X2.73500 Y3.15600
X2.73400 Y3.15600
X2.73400 Y3.15500
X2.73300 Y3.15500
X2.73300 Y3.15400
X2.73200 Y3.15400
X2.73200 Y3.15300
X2.73000 Y3.15300
X2.73000 Y3.15200
X2.72900 Y3.15200
X2.72900 Y3.15100
X2.72800 Y3.15100
X2.72800 Y3.15000
X2.72700 Y3.15000
X2.72700 Y3.14900
X2.72600 Y3.14900
X2.72600 Y3.14800
X2.72500 Y3.14800
X2.72500 Y3.14700
X2.72400 Y3.14700
X2.72400 Y3.14600
X2.72300 Y3.14600
X2.72300 Y3.14500
X2.72200 Y3.14500
X2.72200 Y3.14400
X2.72100 Y3.14400
X2.72100 Y3.14300
X2.72000 Y3.14300
X2.72000 Y3.14200
X2.71800 Y3.14200
X2.71800 Y3.14100
X2.71700 Y3.14100
X2.71700 Y3.14000
X2.71600 Y3.14000
X2.71600 Y3.13900
X2.71500 Y3.13900
X2.71500 Y3.13800
X2.71400 Y3.13800
X2.71400 Y3.13700
X2.71300 Y3.13700
X2.71300 Y3.13600
X2.71200 Y3.13600
X2.71200 Y3.13500
X2.71100 Y3.13500
X2.71100 Y3.13400
X2.71000 Y3.13400
X2.71000 Y3.13300
X2.70900 Y3.13300
X2.70900 Y3.13200
X2.70800 Y3.13200
X2.70800 Y3.13100
X2.70600 Y3.13100
X2.70600 Y3.13000
X2.70500 Y3.13000
X2.70500 Y3.12900
X2.70400 Y3.12900
X2.70400 Y3.12800
X2.67600 Y3.12800
X2.67600 Y3.12700
X2.67000 Y3.12700
X2.67000 Y3.12600
X2.66700 Y3.12600
X2.66700 Y3.12500
X2.66500 Y3.12500
X2.66500 Y3.12400
X2.66400 Y3.12400
X2.66400 Y3.12300
X2.66200 Y3.12300
X2.66200 Y3.12200
X2.66000 Y3.12200
X2.66000 Y3.12100
X2.65900 Y3.12100
X2.65900 Y3.12000
X2.65700 Y3.12000
X2.65700 Y3.11900
X2.65600 Y3.11900
X2.65600 Y3.11800
X2.65500 Y3.11800
X2.65500 Y3.11700
X2.65400 Y3.11700
X2.65400 Y3.11600
X2.65300 Y3.11600
X2.65300 Y3.11500
X2.65200 Y3.11500
X2.65200 Y3.11400
X2.65100 Y3.11400
X2.65100 Y3.11200
X2.65000 Y3.11200
X2.65000 Y3.11000
X2.64900 Y3.11000
X2.64900 Y3.10900
X2.64800 Y3.10900
X2.64800 Y3.10700
X2.64700 Y3.10700
X2.64700 Y3.10300
X2.64600 Y3.10300
X2.64600 Y3.10000
X2.64500 Y3.10000
X2.64500 Y3.05100
X2.64600 Y3.05100
X2.64600 Y3.04800
X2.64700 Y3.04800
X2.64700 Y3.04400
X2.64800 Y3.04400
X2.64800 Y3.04200
X2.64900 Y3.04200
X2.64900 Y3.04100
X2.65000 Y3.04100
X2.65000 Y3.03900
X2.65100 Y3.03900
X2.65100 Y3.03700
X2.65200 Y3.03700
X2.65200 Y3.03600
X2.65300 Y3.03600
X2.65300 Y3.03500
X2.65400 Y3.03500
X2.65400 Y3.03400
X2.65500 Y3.03400
X2.65500 Y3.03300
X2.65600 Y3.03300
X2.65600 Y3.03200
X2.65700 Y3.03200
X2.65700 Y3.03100
X2.65900 Y3.03100
X2.65900 Y3.03000
X2.66000 Y3.03000
X2.66000 Y3.02900
X2.66200 Y3.02900
X2.66200 Y3.02800
X2.66400 Y3.02800
X2.66400 Y3.02700
X2.66500 Y3.02700
X2.66500 Y3.02600
X2.66700 Y3.02600
X2.66700 Y3.02500
X2.67000 Y3.02500
X2.67000 Y3.02400
X2.67600 Y3.02400
X2.67600 Y3.02300
X2.71900 Y3.02300
X2.71900 Y3.02400
X2.72500 Y3.02400
X2.72500 Y3.02500
X2.72800 Y3.02500
X2.72800 Y3.02600
X2.73000 Y3.02600
X2.73000 Y3.02700
X2.73100 Y3.02700
X2.73100 Y3.02800
X2.73300 Y3.02800
X2.73300 Y3.02900
X2.73500 Y3.02900
X2.73500 Y3.03000
X2.73600 Y3.03000
X2.73600 Y3.03100
X2.73800 Y3.03100
X2.73800 Y3.03200
X2.73900 Y3.03200
X2.73900 Y3.03300
X2.74000 Y3.03300
X2.74000 Y3.03400
X2.74100 Y3.03400
X2.74100 Y3.03500
X2.74200 Y3.03500
X2.74200 Y3.03600
X2.74300 Y3.03600
X2.74300 Y3.03700
X2.74400 Y3.03700
X2.74400 Y3.03600
X2.74500 Y3.03600
X2.74500 Y3.03500
X2.74700 Y3.03500
X2.74700 Y3.03400
X2.74800 Y3.03400
X2.74800 Y3.03300
X2.74900 Y3.03300
X2.74900 Y3.03200
X2.75000 Y3.03200
X2.75000 Y3.03100
X2.75100 Y3.03100
X2.75100 Y3.03000
X2.75200 Y3.03000
X2.75200 Y3.02900
X2.75300 Y3.02900
X2.75300 Y3.02800
X2.75400 Y3.02800
X2.75400 Y3.02700
X2.75500 Y3.02700
X2.75500 Y3.02600
X2.75600 Y3.02600
X2.75600 Y3.02500
X2.75700 Y3.02500
X2.75700 Y3.02400
X2.75800 Y3.02400
X2.75800 Y3.02300
X2.75900 Y3.02300
X2.75900 Y3.02200
X2.76000 Y3.02200
X2.76000 Y3.02100
X2.76100 Y3.02100
X2.76100 Y3.02000
X2.76200 Y3.02000
X2.76200 Y3.01900
X2.76400 Y3.01900
X2.76400 Y3.01800
X2.76500 Y3.01800
X2.76500 Y3.01700
X2.76600 Y3.01700
X2.76600 Y3.01600
X2.76700 Y3.01600
X2.76700 Y3.01500
X2.76800 Y3.01500
X2.76800 Y3.01400
X2.76900 Y3.01400
X2.76900 Y3.01300
X2.77000 Y3.01300
X2.77000 Y3.01200
X2.77100 Y3.01200
X2.77100 Y3.01100
X2.77200 Y3.01100
X2.77200 Y3.01000
X2.77300 Y3.01000
X2.77300 Y3.00900
X2.77400 Y3.00900
X2.77400 Y3.00800
X2.77500 Y3.00800
X2.77500 Y3.00700
X2.77600 Y3.00700
X2.77600 Y3.00600
X2.77700 Y3.00600
X2.77700 Y3.00500
X2.77800 Y3.00500
X2.77800 Y3.00400
X2.77900 Y3.00400
X2.77900 Y3.00300
X2.78100 Y3.00300
X2.78100 Y3.00200
X2.78200 Y3.00200
X2.78200 Y3.00100
X2.78300 Y3.00100
X2.78300 Y3.00000
X2.78400 Y3.00000
X2.78400 Y2.99900
X2.78500 Y2.99900
X2.78500 Y2.99800
X2.78600 Y2.99800
X2.78600 Y2.99700
X2.78700 Y2.99700
X2.78700 Y2.99600
X2.78800 Y2.99600
X2.78800 Y2.99500
X2.78900 Y2.99500
X2.78900 Y2.99400
X2.79000 Y2.99400
X2.79000 Y2.99300
X2.79100 Y2.99300
X2.79100 Y2.99200
X2.79200 Y2.99200
X2.79200 Y2.99100
X2.79300 Y2.99100
X2.79300 Y2.99000
X2.79400 Y2.99000
X2.79400 Y2.98900
X2.79500 Y2.98900
X2.79500 Y2.98800
X2.79600 Y2.98800
X2.79600 Y2.98700
X2.79700 Y2.98700
X2.79700 Y2.98600
X2.79800 Y2.98600
X2.79800 Y2.98500
X2.79900 Y2.98500
X2.79900 Y2.98400
X2.80000 Y2.98400
X2.80000 Y2.98300
X2.80100 Y2.98300
X2.80100 Y2.98200
X2.80200 Y2.98200
X2.80200 Y2.98100
X2.80300 Y2.98100
X2.80300 Y2.98000
X2.80400 Y2.98000
X2.80400 Y2.97900
X2.80500 Y2.97900
X2.80500 Y2.97800
X2.80600 Y2.97800
X2.80600 Y2.97700
X2.80700 Y2.97700
X2.80700 Y2.97600
X2.80800 Y2.97600
X2.80800 Y2.97500
X2.80900 Y2.97500
X2.80900 Y2.97400
X2.81000 Y2.97400
X2.81000 Y2.97300
X2.81100 Y2.97300
X2.81100 Y2.97200
X2.81200 Y2.97200
X2.81200 Y2.97100
X2.81300 Y2.97100
X2.81300 Y2.97000
X2.81400 Y2.97000
X2.81400 Y2.96900
X2.81500 Y2.96900
X2.81500 Y2.96800
X2.81600 Y2.96800
X2.81600 Y2.96700
X2.81700 Y2.96700
X2.81700 Y2.96600
X2.81800 Y2.96600
X2.81800 Y2.96500
X2.81900 Y2.96500
X2.81900 Y2.96400
X2.82000 Y2.96400
X2.82000 Y2.96300
X2.82100 Y2.96300
X2.82100 Y2.96200
X2.82200 Y2.96200
X2.82200 Y2.96100
X2.82300 Y2.96100
X2.82300 Y2.96000
X2.82400 Y2.96000
X2.82400 Y2.95900
X2.82500 Y2.95900
X2.82500 Y2.95800
X2.82600 Y2.95800
X2.82600 Y2.95700
X2.82700 Y2.95700
X2.82700 Y2.79800
X2.82500 Y2.79800
X2.82500 Y2.79700
X2.82400 Y2.79700
X2.82400 Y2.79600
X2.82200 Y2.79600
X2.82200 Y2.79500
X2.82100 Y2.79500
X2.82100 Y2.79400
X2.81900 Y2.79400
X2.81900 Y2.79300
X2.81800 Y2.79300
X2.81800 Y2.79200
X2.81600 Y2.79200
X2.81600 Y2.79100
X2.81400 Y2.79100
X2.81400 Y2.79000
X2.81300 Y2.79000
X2.81300 Y2.78900
X2.81100 Y2.78900
X2.81100 Y2.78800
X2.81000 Y2.78800
X2.81000 Y2.78700
X2.80800 Y2.78700
X2.80800 Y2.78600
X2.80700 Y2.78600
X2.80700 Y2.78500
X2.80500 Y2.78500
X2.80500 Y2.78400
X2.80300 Y2.78400
X2.80300 Y2.78300
X2.80200 Y2.78300
X2.80200 Y2.78200
X2.80000 Y2.78200
X2.80000 Y2.78100
X2.79900 Y2.78100
X2.79900 Y2.78000
X2.79700 Y2.78000
X2.79700 Y2.77900
X2.79600 Y2.77900
X2.79600 Y2.77800
X2.79400 Y2.77800
X2.79400 Y2.77700
X2.79200 Y2.77700
X2.79200 Y2.77600
X2.79100 Y2.77600
X2.79100 Y2.77500
X2.78900 Y2.77500
X2.78900 Y2.77400
X2.78800 Y2.77400
X2.78800 Y2.77300
X2.78600 Y2.77300
X2.78600 Y2.77200
X2.78500 Y2.77200
X2.78500 Y2.77100
X2.78300 Y2.77100
X2.78300 Y2.77000
X2.78200 Y2.77000
X2.78200 Y2.76900
X2.78000 Y2.76900
X2.78000 Y2.76800
X2.77800 Y2.76800
X2.77800 Y2.76700
X2.77700 Y2.76700
X2.77700 Y2.76600
X2.77500 Y2.76600
X2.77500 Y2.76500
X2.77400 Y2.76500
X2.77400 Y2.76400
X2.77200 Y2.76400
X2.77200 Y2.76300
X2.77100 Y2.76300
X2.77100 Y2.76200
X2.76900 Y2.76200
X2.76900 Y2.76100
X2.76700 Y2.76100
X2.76700 Y2.76000
X2.76600 Y2.76000
X2.76600 Y2.75900
X2.76400 Y2.75900
X2.76400 Y2.75800
X2.76300 Y2.75800
X2.76300 Y2.75700
X2.76100 Y2.75700
X2.76100 Y2.75600
X2.76000 Y2.75600
X2.76000 Y2.75500
X2.75800 Y2.75500
X2.75800 Y2.75400
X2.75600 Y2.75400
X2.75600 Y2.75300
X2.75500 Y2.75300
X2.75500 Y2.75200
X2.75300 Y2.75200
X2.75300 Y2.75100
X2.75200 Y2.75100
X2.75200 Y2.75000
X2.75000 Y2.75000
X2.75000 Y2.74900
X2.74900 Y2.74900
X2.74900 Y2.74800
X2.74700 Y2.74800
X2.74700 Y2.74700
X2.74600 Y2.74700
X2.74600 Y2.74600
X2.74400 Y2.74600
X2.74400 Y2.74500
X2.74200 Y2.74500
X2.74200 Y2.74400
X2.74100 Y2.74400
X2.74100 Y2.74300
X2.73900 Y2.74300
X2.73900 Y2.74200
X2.73800 Y2.74200
X2.73800 Y2.74100
X2.73600 Y2.74100
X2.73600 Y2.74000
X2.73500 Y2.74000
X2.73500 Y2.73900
X2.73300 Y2.73900
X2.73300 Y2.73800
X2.73100 Y2.73800
X2.73100 Y2.73700
X2.73000 Y2.73700
X2.73000 Y2.73600
X2.72800 Y2.73600
X2.72800 Y2.73500
X2.72700 Y2.73500
X2.72700 Y2.73400
X2.72500 Y2.73400
X2.72500 Y2.73300
X2.72400 Y2.73300
X2.72400 Y2.73200
X2.72200 Y2.73200
X2.72200 Y2.73100
X2.72000 Y2.73100
X2.72000 Y2.73000
X2.71900 Y2.73000
X2.71900 Y2.72900
X2.71700 Y2.72900
X2.71700 Y2.72800
X2.67600 Y2.72800
X2.67600 Y2.72700
X2.67000 Y2.72700
X2.67000 Y2.72600
X2.66700 Y2.72600
X2.66700 Y2.72500
X2.66500 Y2.72500
X2.66500 Y2.72400
X2.66400 Y2.72400
X2.66400 Y2.72300
X2.66200 Y2.72300
X2.66200 Y2.72200
X2.66000 Y2.72200
X2.66000 Y2.72100
X2.65900 Y2.72100
X2.65900 Y2.72000
X2.65700 Y2.72000
X2.65700 Y2.71900
X2.65600 Y2.71900
X2.65600 Y2.71800
X2.65500 Y2.71800
X2.65500 Y2.71700
X2.65400 Y2.71700
X2.65400 Y2.71600
X2.65300 Y2.71600
X2.65300 Y2.71500
X2.65200 Y2.71500
X2.65200 Y2.71400
X2.65100 Y2.71400
X2.65100 Y2.71200
X2.65000 Y2.71200
X2.65000 Y2.71000
X2.64900 Y2.71000
X2.64900 Y2.70900
X2.64800 Y2.70900
X2.64800 Y2.70700
X2.64700 Y2.70700
X2.64700 Y2.70300
X2.64600 Y2.70300
X2.64600 Y2.70000
X2.64500 Y2.70000
X2.64500 Y2.65100
X2.64600 Y2.65100
X2.64600 Y2.64800
X2.64700 Y2.64800
X2.64700 Y2.64400
X2.64800 Y2.64400
X2.64800 Y2.64200
X2.64900 Y2.64200
X2.64900 Y2.64100
X2.65000 Y2.64100
X2.65000 Y2.63900
X2.65100 Y2.63900
X2.65100 Y2.63700
X2.65200 Y2.63700
X2.65200 Y2.63600
X2.65300 Y2.63600
X2.65300 Y2.63500
X2.65400 Y2.63500
X2.65400 Y2.63400
X2.65500 Y2.63400
X2.65500 Y2.63300
X2.65600 Y2.63300
X2.65600 Y2.63200
X2.65700 Y2.63200
X2.65700 Y2.63100
X2.65900 Y2.63100
X2.65900 Y2.63000
X2.66000 Y2.63000
X2.66000 Y2.62900
X2.66200 Y2.62900
X2.66200 Y2.62800
X2.66400 Y2.62800
X2.66400 Y2.62700
X2.66500 Y2.62700
X2.66500 Y2.62600
X2.66700 Y2.62600
X2.66700 Y2.62500
X2.67000 Y2.62500
X2.67000 Y2.62400
X2.67600 Y2.62400
X2.67600 Y2.62300
X2.72000 Y2.62300
X2.72000 Y2.62200
X2.72100 Y2.62200
X2.72100 Y2.62100
X2.72300 Y2.62100
X2.72300 Y2.62000
X2.72400 Y2.62000
X2.72400 Y2.61900
X2.72600 Y2.61900
X2.72600 Y2.61800
X2.72800 Y2.61800
X2.72800 Y2.61700
X2.72900 Y2.61700
X2.72900 Y2.61600
X2.73100 Y2.61600
X2.73100 Y2.61500
X2.73200 Y2.61500
X2.73200 Y2.61400
X2.73400 Y2.61400
X2.73400 Y2.61300
X2.73500 Y2.61300
X2.73500 Y2.61200
X2.73700 Y2.61200
X2.73700 Y2.61100
X2.73800 Y2.61100
X2.73800 Y2.61000
X2.74000 Y2.61000
X2.74000 Y2.60900
X2.74200 Y2.60900
X2.74200 Y2.60800
X2.74300 Y2.60800
X2.74300 Y2.60700
X2.74500 Y2.60700
X2.74500 Y2.60600
X2.74600 Y2.60600
X2.74600 Y2.60500
X2.74800 Y2.60500
X2.74800 Y2.60400
X2.74900 Y2.60400
X2.74900 Y2.60300
X2.75100 Y2.60300
X2.75100 Y2.60200
X2.75200 Y2.60200
X2.75200 Y2.60100
X2.75400 Y2.60100
X2.75400 Y2.60000
X2.75500 Y2.60000
X2.75500 Y2.59900
X2.75700 Y2.59900
X2.75700 Y2.59800
X2.75900 Y2.59800
X2.75900 Y2.59700
X2.76000 Y2.59700
X2.76000 Y2.59600
X2.76200 Y2.59600
X2.76200 Y2.59500
X2.76300 Y2.59500
X2.76300 Y2.59400
X2.76500 Y2.59400
X2.76500 Y2.59300
X2.76600 Y2.59300
X2.76600 Y2.59200
X2.76800 Y2.59200
X2.76800 Y2.59100
X2.76900 Y2.59100
X2.76900 Y2.59000
X2.77100 Y2.59000
X2.77100 Y2.58900
X2.77300 Y2.58900
X2.77300 Y2.58800
X2.77400 Y2.58800
X2.77400 Y2.58700
X2.77600 Y2.58700
X2.77600 Y2.58600
X2.77700 Y2.58600
X2.77700 Y2.58500
X2.77900 Y2.58500
X2.77900 Y2.58400
X2.78000 Y2.58400
X2.78000 Y2.58300
X2.78200 Y2.58300
X2.78200 Y2.58200
X2.78300 Y2.58200
X2.78300 Y2.58100
X2.78500 Y2.58100
X2.78500 Y2.58000
X2.78700 Y2.58000
X2.78700 Y2.57900
X2.78800 Y2.57900
X2.78800 Y2.57800
X2.79000 Y2.57800
X2.79000 Y2.57700
X2.79100 Y2.57700
X2.79100 Y2.57600
X2.79300 Y2.57600
X2.79300 Y2.57500
X2.79400 Y2.57500
X2.79400 Y2.57400
X2.79600 Y2.57400
X2.79600 Y2.57300
X2.79700 Y2.57300
X2.79700 Y2.57200
X2.79900 Y2.57200
X2.79900 Y2.57100
X2.80100 Y2.57100
X2.80100 Y2.57000
X2.80200 Y2.57000
X2.80200 Y2.56900
X2.80400 Y2.56900
X2.80400 Y2.56800
X2.80500 Y2.56800
X2.80500 Y2.56700
X2.80700 Y2.56700
X2.80700 Y2.56600
X2.80800 Y2.56600
X2.80800 Y2.56500
X2.81000 Y2.56500
X2.81000 Y2.56400
X2.81100 Y2.56400
X2.81100 Y2.56300
X2.81300 Y2.56300
X2.81300 Y2.56200
X2.81500 Y2.56200
X2.81500 Y2.56100
X2.81600 Y2.56100
X2.81600 Y2.56000
X2.81800 Y2.56000
X2.81800 Y2.55900
X2.81900 Y2.55900
X2.81900 Y2.55800
X2.82100 Y2.55800
X2.82100 Y2.55700
X2.82200 Y2.55700
X2.82200 Y2.55600
X2.82400 Y2.55600
X2.82400 Y2.55500
X2.82500 Y2.55500
X2.82500 Y2.55400
X2.82700 Y2.55400
X2.82700 Y2.39700
X2.82500 Y2.39700
X2.82500 Y2.39600
X2.82400 Y2.39600
X2.82400 Y2.39500
X2.82200 Y2.39500
X2.82200 Y2.39400
X2.82100 Y2.39400
X2.82100 Y2.39300
X2.81900 Y2.39300
X2.81900 Y2.39200
X2.81700 Y2.39200
X2.81700 Y2.39100
X2.81600 Y2.39100
X2.81600 Y2.39000
X2.81400 Y2.39000
X2.81400 Y2.38900
X2.81300 Y2.38900
X2.81300 Y2.38800
X2.81100 Y2.38800
X2.81100 Y2.38700
X2.81000 Y2.38700
X2.81000 Y2.38600
X2.80800 Y2.38600
X2.80800 Y2.38500
X2.80600 Y2.38500
X2.80600 Y2.38400
X2.80500 Y2.38400
X2.80500 Y2.38300
X2.80300 Y2.38300
X2.80300 Y2.38200
X2.80200 Y2.38200
X2.80200 Y2.38100
X2.80000 Y2.38100
X2.80000 Y2.38000
X2.79900 Y2.38000
X2.79900 Y2.37900
X2.79700 Y2.37900
X2.79700 Y2.37800
X2.79500 Y2.37800
X2.79500 Y2.37700
X2.79400 Y2.37700
X2.79400 Y2.37600
X2.79200 Y2.37600
X2.79200 Y2.37500
X2.79100 Y2.37500
X2.79100 Y2.37400
X2.78900 Y2.37400
X2.78900 Y2.37300
X2.78800 Y2.37300
X2.78800 Y2.37200
X2.78600 Y2.37200
X2.78600 Y2.37100
X2.78400 Y2.37100
X2.78400 Y2.37000
X2.78300 Y2.37000
X2.78300 Y2.36900
X2.78100 Y2.36900
X2.78100 Y2.36800
X2.78000 Y2.36800
X2.78000 Y2.36700
X2.77800 Y2.36700
X2.77800 Y2.36600
X2.77700 Y2.36600
X2.77700 Y2.36500
X2.77500 Y2.36500
X2.77500 Y2.36400
X2.77300 Y2.36400
X2.77300 Y2.36300
X2.77200 Y2.36300
X2.77200 Y2.36200
X2.77000 Y2.36200
X2.77000 Y2.36100
X2.76900 Y2.36100
X2.76900 Y2.36000
X2.76700 Y2.36000
X2.76700 Y2.35900
X2.76600 Y2.35900
X2.76600 Y2.35800
X2.76400 Y2.35800
X2.76400 Y2.35700
X2.76200 Y2.35700
X2.76200 Y2.35600
X2.76100 Y2.35600
X2.76100 Y2.35500
X2.75900 Y2.35500
X2.75900 Y2.35400
X2.75800 Y2.35400
X2.75800 Y2.35300
X2.75600 Y2.35300
X2.75600 Y2.35200
X2.75500 Y2.35200
X2.75500 Y2.35100
X2.75300 Y2.35100
X2.75300 Y2.35000
X2.75100 Y2.35000
X2.75100 Y2.34900
X2.75000 Y2.34900
X2.75000 Y2.34800
X2.74800 Y2.34800
X2.74800 Y2.34700
X2.74700 Y2.34700
X2.74700 Y2.34600
X2.74500 Y2.34600
X2.74500 Y2.34500
X2.74400 Y2.34500
X2.74400 Y2.34400
X2.74200 Y2.34400
X2.74200 Y2.34300
X2.74000 Y2.34300
X2.74000 Y2.34200
X2.73900 Y2.34200
X2.73900 Y2.34100
X2.73700 Y2.34100
X2.73700 Y2.34000
X2.73600 Y2.34000
X2.73600 Y2.33900
X2.73400 Y2.33900
X2.73400 Y2.33800
X2.73300 Y2.33800
X2.73300 Y2.33700
X2.73100 Y2.33700
X2.73100 Y2.33600
X2.72900 Y2.33600
X2.72900 Y2.33500
X2.72800 Y2.33500
X2.72800 Y2.33400
X2.72600 Y2.33400
X2.72600 Y2.33300
X2.72500 Y2.33300
X2.72500 Y2.33200
X2.72300 Y2.33200
X2.72300 Y2.33100
X2.72200 Y2.33100
X2.72200 Y2.33000
X2.72000 Y2.33000
X2.72000 Y2.32900
X2.71800 Y2.32900
X2.71800 Y2.32800
X2.67600 Y2.32800
X2.67600 Y2.32700
X2.67000 Y2.32700
X2.67000 Y2.32600
X2.66700 Y2.32600
X2.66700 Y2.32500
X2.66500 Y2.32500
X2.66500 Y2.32400
X2.66400 Y2.32400
X2.66400 Y2.32300
X2.66200 Y2.32300
X2.66200 Y2.32200
X2.66000 Y2.32200
X2.66000 Y2.32100
X2.65900 Y2.32100
X2.65900 Y2.32000
X2.65700 Y2.32000
X2.65700 Y2.31900
X2.65600 Y2.31900
X2.65600 Y2.31800
X2.65500 Y2.31800
X2.65500 Y2.31700
X2.65400 Y2.31700
X2.65400 Y2.31600
X2.65300 Y2.31600
X2.65300 Y2.31500
X2.65200 Y2.31500
X2.65200 Y2.31400
X2.65100 Y2.31400
X2.65100 Y2.31200
X2.65000 Y2.31200
X2.65000 Y2.31000
X2.64900 Y2.31000
X2.64900 Y2.30900
X2.64800 Y2.30900
X2.64800 Y2.30700
X2.64700 Y2.30700
X2.64700 Y2.30300
X2.64600 Y2.30300
X2.64600 Y2.30000
X2.64500 Y2.30000
X2.64500 Y2.25100
X2.64600 Y2.25100
X2.64600 Y2.24800
X2.64700 Y2.24800
X2.64700 Y2.24400
X2.64800 Y2.24400
X2.64800 Y2.24200
X2.64900 Y2.24200
X2.64900 Y2.24100
X2.65000 Y2.24100
X2.65000 Y2.23900
X2.65100 Y2.23900
X2.65100 Y2.23700
X2.65200 Y2.23700
X2.65200 Y2.23600
X2.65300 Y2.23600
X2.65300 Y2.23500
X2.65400 Y2.23500
X2.65400 Y2.23400
X2.65500 Y2.23400
X2.65500 Y2.23300
X2.65600 Y2.23300
X2.65600 Y2.23200
X2.65700 Y2.23200
X2.65700 Y2.23100
X2.65900 Y2.23100
X2.65900 Y2.23000
X2.66000 Y2.23000
X2.66000 Y2.22900
X2.66200 Y2.22900
X2.66200 Y2.22800
X2.66400 Y2.22800
X2.66400 Y2.22700
X2.66500 Y2.22700
X2.66500 Y2.22600
X2.66700 Y2.22600
X2.66700 Y2.22500
X2.67000 Y2.22500
X2.67000 Y2.22400
X2.67600 Y2.22400
X2.67600 Y2.22300
X2.72000 Y2.22300
X2.72000 Y2.22200
X2.72200 Y2.22200
X2.72200 Y2.22100
X2.72300 Y2.22100
X2.72300 Y2.22000
X2.72500 Y2.22000
X2.72500 Y2.21900
X2.72600 Y2.21900
X2.72600 Y2.21800
X2.72800 Y2.21800
X2.72800 Y2.21700
X2.72900 Y2.21700
X2.72900 Y2.21600
X2.73100 Y2.21600
X2.73100 Y2.21500
X2.73300 Y2.21500
X2.73300 Y2.21400
X2.73400 Y2.21400
X2.73400 Y2.21300
X2.73600 Y2.21300
X2.73600 Y2.21200
X2.73700 Y2.21200
X2.73700 Y2.21100
X2.73900 Y2.21100
X2.73900 Y2.21000
X2.74000 Y2.21000
X2.74000 Y2.20900
X2.74200 Y2.20900
X2.74200 Y2.20800
X2.74400 Y2.20800
X2.74400 Y2.20700
X2.74500 Y2.20700
X2.74500 Y2.20600
X2.74700 Y2.20600
X2.74700 Y2.20500
X2.74800 Y2.20500
X2.74800 Y2.20400
X2.75000 Y2.20400
X2.75000 Y2.20300
X2.75100 Y2.20300
X2.75100 Y2.20200
X2.75300 Y2.20200
X2.75300 Y2.20100
X2.75500 Y2.20100
X2.75500 Y2.20000
X2.75600 Y2.20000
X2.75600 Y2.19900
X2.75800 Y2.19900
X2.75800 Y2.19800
X2.75900 Y2.19800
X2.75900 Y2.19700
X2.76100 Y2.19700
X2.76100 Y2.19600
X2.76200 Y2.19600
X2.76200 Y2.19500
X2.76400 Y2.19500
X2.76400 Y2.19400
X2.76600 Y2.19400
X2.76600 Y2.19300
X2.76700 Y2.19300
X2.76700 Y2.19200
X2.76900 Y2.19200
X2.76900 Y2.19100
X2.77000 Y2.19100
X2.77000 Y2.19000
X2.77200 Y2.19000
X2.77200 Y2.18900
X2.77300 Y2.18900
X2.77300 Y2.18800
X2.77500 Y2.18800
X2.77500 Y2.18700
X2.77700 Y2.18700
X2.77700 Y2.18600
X2.77800 Y2.18600
X2.77800 Y2.18500
X2.78000 Y2.18500
X2.78000 Y2.18400
X2.78100 Y2.18400
X2.78100 Y2.18300
X2.78300 Y2.18300
X2.78300 Y2.18200
X2.78400 Y2.18200
X2.78400 Y2.18100
X2.78600 Y2.18100
X2.78600 Y2.18000
X2.78800 Y2.18000
X2.78800 Y2.17900
X2.78900 Y2.17900
X2.78900 Y2.17800
X2.79100 Y2.17800
X2.79100 Y2.17700
X2.79200 Y2.17700
X2.79200 Y2.17600
X2.79400 Y2.17600
X2.79400 Y2.17500
X2.79500 Y2.17500
X2.79500 Y2.17400
X2.79700 Y2.17400
X2.79700 Y2.17300
X2.79900 Y2.17300
X2.79900 Y2.17200
X2.80000 Y2.17200
X2.80000 Y2.17100
X2.80200 Y2.17100
X2.80200 Y2.17000
X2.80300 Y2.17000
X2.80300 Y2.16900
X2.80500 Y2.16900
X2.80500 Y2.16800
X2.80600 Y2.16800
X2.80600 Y2.16700
X2.80800 Y2.16700
X2.80800 Y2.16600
X2.81000 Y2.16600
X2.81000 Y2.16500
X2.81100 Y2.16500
X2.81100 Y2.16400
X2.81300 Y2.16400
X2.81300 Y2.16300
X2.81400 Y2.16300
X2.81400 Y2.16200
X2.81600 Y2.16200
X2.81600 Y2.16100
X2.81700 Y2.16100
X2.81700 Y2.16000
X2.81900 Y2.16000
X2.81900 Y2.15900
X2.81800 Y2.15900
X2.81800 Y2.15500
X2.81700 Y2.15500
X2.81700 Y2.15100
X2.81600 Y2.15100
X2.81600 Y2.14700
X2.81500 Y2.14700
X2.81500 Y2.14300
X2.81400 Y2.14300
X2.81400 Y2.13900
X2.81300 Y2.13900
X2.81300 Y2.13500
X2.81200 Y2.13500
X2.81200 Y2.13000
X2.81100 Y2.13000
X2.81100 Y2.12600
X2.81000 Y2.12600
X2.81000 Y2.12200
X2.80900 Y2.12200
X2.80900 Y2.11800
X2.80800 Y2.11800
X2.80800 Y2.11400
X2.80700 Y2.11400
X2.80700 Y2.11000
X2.80600 Y2.11000
X2.80600 Y2.10600
X2.80500 Y2.10600
X2.80500 Y2.10200
X2.80400 Y2.10200
X2.80400 Y2.09800
X2.80300 Y2.09800
X2.80300 Y2.09400
X2.80200 Y2.09400
X2.80200 Y2.09000
X2.80100 Y2.09000
X2.80100 Y2.08600
X2.80000 Y2.08600
X2.80000 Y2.08200
X2.79900 Y2.08200
X2.79900 Y2.07800
X2.79800 Y2.07800
X2.79800 Y2.07400
X2.79700 Y2.07400
X2.79700 Y2.07000
X2.79600 Y2.07000
X2.79600 Y2.06600
X2.79500 Y2.06600
X2.79500 Y2.06100
X2.79400 Y2.06100
X2.79400 Y2.05700
X2.79300 Y2.05700
X2.79300 Y2.05300
X2.79200 Y2.05300
X2.79200 Y2.04900
X2.79100 Y2.04900
X2.79100 Y2.04500
X2.79000 Y2.04500
X2.79000 Y2.04100
X2.78900 Y2.04100
X2.78900 Y2.03700
X2.78800 Y2.03700
X2.78800 Y2.03300
X2.78700 Y2.03300
X2.78700 Y2.02900
X2.78600 Y2.02900
X2.78600 Y2.02500
X2.78500 Y2.02500
X2.78500 Y2.02100
X2.78400 Y2.02100
X2.78400 Y2.01700
X2.78300 Y2.01700
X2.78300 Y2.01300
X2.78200 Y2.01300
X2.78200 Y2.00900
X2.78100 Y2.00900
X2.78100 Y2.00500
X2.78000 Y2.00500
X2.78000 Y2.00100
X2.77800 Y2.00100
X2.77800 Y2.00000
X2.77600 Y2.00000
X2.77600 Y1.99900
X2.77400 Y1.99900
X2.77400 Y1.99800
X2.77200 Y1.99800
X2.77200 Y1.99700
X2.77000 Y1.99700
X2.77000 Y1.99600
X2.76800 Y1.99600
X2.76800 Y1.99500
X2.76600 Y1.99500
X2.76600 Y1.99400
X2.76400 Y1.99400
X2.76400 Y1.99300
X2.76200 Y1.99300
X2.76200 Y1.99200
X2.76000 Y1.99200
X2.76000 Y1.99100
X2.75800 Y1.99100
X2.75800 Y1.99000
X2.75600 Y1.99000
X2.75600 Y1.98900
X2.75400 Y1.98900
X2.75400 Y1.98800
X2.75200 Y1.98800
X2.75200 Y1.98700
X2.75000 Y1.98700
X2.75000 Y1.98600
X2.74800 Y1.98600
X2.74800 Y1.98500
X2.74600 Y1.98500
X2.74600 Y1.98400
X2.74400 Y1.98400
X2.74400 Y1.98300
X2.74200 Y1.98300
X2.74200 Y1.98200
X2.74000 Y1.98200
X2.74000 Y1.98100
X2.73800 Y1.98100
X2.73800 Y1.98000
X2.73600 Y1.98000
X2.73600 Y1.97900
X2.73400 Y1.97900
X2.73400 Y1.97800
X2.73200 Y1.97800
X2.73200 Y1.97700
X2.73000 Y1.97700
X2.73000 Y1.97600
X2.72800 Y1.97600
X2.72800 Y1.97500
X2.72600 Y1.97500
X2.72600 Y1.97400
X2.72400 Y1.97400
X2.72400 Y1.97300
X2.72200 Y1.97300
X2.72200 Y1.97200
X2.72000 Y1.97200
X2.72000 Y1.97100
X2.71800 Y1.97100
X2.71800 Y1.97000
X2.71600 Y1.97000
X2.71600 Y1.96900
X2.71400 Y1.96900
X2.71400 Y1.96800
X2.71200 Y1.96800
X2.71200 Y1.96700
X2.71000 Y1.96700
X2.71000 Y1.96600
X2.70900 Y1.96600
X2.70900 Y1.96500
X2.70700 Y1.96500
X2.70700 Y1.96400
X2.70500 Y1.96400
X2.70500 Y1.96300
X2.70300 Y1.96300
X2.70300 Y1.96200
X2.70100 Y1.96200
X2.70100 Y1.96100
X2.69900 Y1.96100
X2.69900 Y1.96000
X2.69700 Y1.96000
X2.69700 Y1.95900
X2.69500 Y1.95900
X2.69500 Y1.95800
X2.69300 Y1.95800
X2.69300 Y1.95700
X2.69100 Y1.95700
X2.69100 Y1.95600
X2.68900 Y1.95600
X2.68900 Y1.95500
X2.68700 Y1.95500
X2.68700 Y1.95400
X2.68500 Y1.95400
X2.68500 Y1.95300
X2.68300 Y1.95300
X2.68300 Y1.95200
X2.68100 Y1.95200
X2.68100 Y1.95100
X2.67900 Y1.95100
X2.67900 Y1.95000
X2.67700 Y1.95000
X2.67700 Y1.94900
X2.67500 Y1.94900
X2.67500 Y1.94800
X2.67300 Y1.94800
X2.67300 Y1.94700
X2.67100 Y1.94700
X2.67100 Y1.94600
X2.66900 Y1.94600
X2.66900 Y1.94500
X2.66700 Y1.94500
X2.66700 Y1.94400
X2.66500 Y1.94400
X2.66500 Y1.94300
X2.66300 Y1.94300
X2.66300 Y1.94200
X2.66100 Y1.94200
X2.66100 Y1.94100
X2.65900 Y1.94100
X2.65900 Y1.94000
X2.65700 Y1.94000
X2.65700 Y1.93900
X2.65500 Y1.93900
X2.65500 Y1.93800
X2.65300 Y1.93800
X2.65300 Y1.93700
X2.65100 Y1.93700
X2.65100 Y1.93600
X2.64900 Y1.93600
X2.64900 Y1.93500
X2.64700 Y1.93500
X2.64700 Y1.93400
X2.64500 Y1.93400
X2.64500 Y1.93300
X2.64300 Y1.93300
X2.64300 Y1.93200
X2.64100 Y1.93200
X2.64100 Y1.93100
X2.63900 Y1.93100
X2.63900 Y1.93000
X2.63700 Y1.93000
X2.63700 Y1.92900
X2.63500 Y1.92900
X2.63500 Y1.92800
X2.63300 Y1.92800
X2.63300 Y1.92700
X2.63100 Y1.92700
X2.63100 Y1.92600
X2.62900 Y1.92600
X2.62900 Y1.92500
X2.62700 Y1.92500
X2.62700 Y1.92400
X2.62500 Y1.92400
X2.62500 Y1.92300
X2.62300 Y1.92300
X2.62300 Y1.92200
X2.62100 Y1.92200
X2.62100 Y1.92100
X2.61900 Y1.92100
X2.61900 Y1.92000
X2.61700 Y1.92000
X2.61700 Y1.91900
X2.61500 Y1.91900
X2.61500 Y1.91800
X2.61300 Y1.91800
X2.61300 Y1.91700
X2.61100 Y1.91700
X2.61100 Y1.91600
X2.60900 Y1.91600
X2.60900 Y1.91500
X2.60700 Y1.91500
X2.60700 Y1.91400
X2.60500 Y1.91400
X2.60500 Y1.91300
X2.60300 Y1.91300
X2.60300 Y1.91200
X2.60100 Y1.91200
X2.60100 Y1.91100
X2.59900 Y1.91100
X2.59900 Y1.91000
X2.59700 Y1.91000
X2.59700 Y1.90900
X2.59500 Y1.90900
X2.59500 Y1.90800
X2.59300 Y1.90800
X2.59300 Y1.90700
X2.59100 Y1.90700
X2.59100 Y1.90600
X2.58900 Y1.90600
X2.58900 Y1.90500
X2.58700 Y1.90500
X2.58700 Y1.90400
X2.58500 Y1.90400
X2.58500 Y1.90300
X2.58300 Y1.90300
X2.58300 Y1.90200
X2.58100 Y1.90200
X2.58100 Y1.90100
X2.57900 Y1.90100
X2.57900 Y1.90000
X2.57700 Y1.90000
X2.57700 Y1.89900
X2.57500 Y1.89900
X2.57500 Y1.89800
X2.57300 Y1.89800
X2.57300 Y1.89700
X2.57100 Y1.89700
X2.57100 Y1.89600
X2.56900 Y1.89600
X2.56900 Y1.89500
X2.56700 Y1.89500
X2.56700 Y1.89400
X2.56500 Y1.89400
X2.56500 Y1.89300
X2.56300 Y1.89300
X2.56300 Y1.89200
X2.56100 Y1.89200
X2.56100 Y1.89100
X2.55900 Y1.89100
X2.55900 Y1.89000
X2.55700 Y1.89000
X2.55700 Y1.88900
X2.55500 Y1.88900
X2.55500 Y1.88800
X2.55300 Y1.88800
X2.55300 Y1.88700
X2.55100 Y1.88700
X2.55100 Y1.88600
X2.54900 Y1.88600
X2.54900 Y1.88500
X2.54700 Y1.88500
X2.54700 Y1.88400
X2.54500 Y1.88400
X2.54500 Y1.88300
X2.54300 Y1.88300
X2.54300 Y1.88200
X2.54100 Y1.88200
X2.54100 Y1.88100
X2.53900 Y1.88100
X2.53900 Y1.88000
X2.53700 Y1.88000
X2.53700 Y1.87900
X2.53500 Y1.87900
X2.53500 Y1.87800
X2.53300 Y1.87800
X2.53300 Y1.87700
X2.53100 Y1.87700
X2.53100 Y1.87600
X2.52900 Y1.87600
X2.52900 Y1.87500
X2.52700 Y1.87500
X2.52700 Y1.87400
X2.52500 Y1.87400
X2.52500 Y1.87300
X2.52300 Y1.87300
X2.52300 Y1.87200
X2.52100 Y1.87200
X2.52100 Y1.87100
X2.51900 Y1.87100
X2.51900 Y1.87000
X2.51700 Y1.87000
X2.51700 Y1.86900
X2.51500 Y1.86900
X2.51500 Y1.86800
X2.51300 Y1.86800
X2.51300 Y1.86700
X2.51100 Y1.86700
X2.51100 Y1.86600
X2.50900 Y1.86600
X2.50900 Y1.86500
X2.50700 Y1.86500
X2.50700 Y1.86400
X2.50500 Y1.86400
X2.50500 Y1.86300
X2.50300 Y1.86300
X2.50300 Y1.86200
X2.50100 Y1.86200
X2.50100 Y1.86100
X2.49900 Y1.86100
X2.49900 Y1.86000
X2.49700 Y1.86000
X2.49700 Y1.85900
X2.49500 Y1.85900
X2.49500 Y1.85800
X2.49300 Y1.85800
X2.49300 Y1.85700
X2.49100 Y1.85700
X2.49100 Y1.85600
X2.48900 Y1.85600
X2.48900 Y1.85500
X2.48700 Y1.85500
X2.48700 Y1.85400
X2.48500 Y1.85400
X2.48500 Y1.85300
X2.48300 Y1.85300
X2.48300 Y1.85200
X2.48100 Y1.85200
X2.48100 Y1.85100
X2.47900 Y1.85100
X2.47900 Y1.85000
X2.47700 Y1.85000
X2.47700 Y1.84900
X2.47500 Y1.84900
X2.47500 Y1.84800
X2.47300 Y1.84800
X2.47300 Y1.84700
X2.47100 Y1.84700
X2.47100 Y1.84600
X2.47000 Y1.84600
X2.47000 Y1.84500
X2.46800 Y1.84500
X2.46800 Y1.84400
X2.46600 Y1.84400
X2.46600 Y1.84300
X2.46400 Y1.84300
X2.46400 Y1.84200
X2.46200 Y1.84200
X2.46200 Y1.84100
X2.46000 Y1.84100
X2.46000 Y1.84000
X2.45800 Y1.84000
X2.45800 Y1.83900
X2.45600 Y1.83900
X2.45600 Y1.83800
X2.45400 Y1.83800
X2.45400 Y1.83700
X2.45200 Y1.83700
X2.45200 Y1.83600
X2.45000 Y1.83600
X2.45000 Y1.83500
X2.44800 Y1.83500
X2.44800 Y1.83400
X2.44600 Y1.83400
X2.44600 Y1.83300
X2.44400 Y1.83300
X2.44400 Y1.83200
X2.44200 Y1.83200
X2.44200 Y1.83100
X2.44000 Y1.83100
X2.44000 Y1.83000
X2.43800 Y1.83000
X2.43800 Y1.82900
X2.43600 Y1.82900
X2.43600 Y1.82800
X2.43400 Y1.82800
X2.43400 Y1.82700
X2.43200 Y1.82700
X2.43200 Y1.82600
X2.43000 Y1.82600
X2.43000 Y1.82500
X2.42800 Y1.82500
X2.42800 Y1.82400
X2.42600 Y1.82400
X2.42600 Y1.82300
X2.42400 Y1.82300
X2.42400 Y1.82200
X2.42200 Y1.82200
X2.42200 Y1.82100
X2.42000 Y1.82100
X2.42000 Y1.82000
X2.41800 Y1.82000
X2.41800 Y1.81900
X2.41600 Y1.81900
X2.41600 Y1.81800
X2.41400 Y1.81800
X2.41400 Y1.81700
X2.41200 Y1.81700
X2.41200 Y1.81600
X2.41000 Y1.81600
X2.41000 Y1.81500
X2.40800 Y1.81500
X2.40800 Y1.81400
X2.40600 Y1.81400
X2.40600 Y1.81300
X2.40400 Y1.81300
X2.40400 Y1.81200
X2.40200 Y1.81200
X2.40200 Y1.81100
X2.40000 Y1.81100
X2.40000 Y1.81000
X2.39800 Y1.81000
X2.39800 Y1.80900
X2.39600 Y1.80900
X2.39600 Y1.80800
X2.39400 Y1.80800
X2.39400 Y1.80700
X2.39200 Y1.80700
X2.39200 Y1.80600
X2.39000 Y1.80600
X2.39000 Y1.80500
X2.38800 Y1.80500
X2.38800 Y1.80400
X2.38600 Y1.80400
X2.38600 Y1.80300
X2.38400 Y1.80300
X2.38400 Y1.80200
X2.38200 Y1.80200
X2.38200 Y1.80100
X2.38000 Y1.80100
X2.38000 Y1.80000
X2.37800 Y1.80000
X2.37800 Y1.79900
X2.37600 Y1.79900
X2.37600 Y1.79800
X2.37400 Y1.79800
X2.37400 Y1.79700
X2.37200 Y1.79700
X2.37200 Y1.79600
X2.37000 Y1.79600
X2.37000 Y1.79500
X2.36800 Y1.79500
X2.36800 Y1.79400
X2.36600 Y1.79400
X2.36600 Y1.79300
X2.36400 Y1.79300
X2.36400 Y1.79200
X2.36200 Y1.79200
X2.36200 Y1.79100
X2.36000 Y1.79100
X2.36000 Y1.79000
X2.35800 Y1.79000
X2.35800 Y1.78900
X2.35600 Y1.78900
X2.35600 Y1.78800
X2.35400 Y1.78800
X2.35400 Y1.78700
X2.35200 Y1.78700
X2.35200 Y1.78600
X2.35000 Y1.78600
X2.35000 Y1.78500
X2.34800 Y1.78500
X2.34800 Y1.78400
X2.34600 Y1.78400
X2.34600 Y1.78300
X2.34400 Y1.78300
X2.34400 Y1.78200
X2.34200 Y1.78200
X2.34200 Y1.78100
X2.34000 Y1.78100
X2.34000 Y1.78000
X2.33800 Y1.78000
X2.33800 Y1.77900
X2.33600 Y1.77900
X2.33600 Y1.77800
X2.33400 Y1.77800
X2.33400 Y1.77700
X2.33200 Y1.77700
X2.33200 Y1.77600
X2.33100 Y1.77600
X2.33100 Y1.77700
X2.32500 Y1.77700
X2.32500 Y1.77800
X2.28200 Y1.77800
X2.28200 Y1.77700
X2.27600 Y1.77700
X2.27600 Y1.77600
X2.27300 Y1.77600
X2.27300 Y1.77500
X2.27100 Y1.77500
X2.27100 Y1.77400
X2.27000 Y1.77400
X2.27000 Y1.77300
X2.26800 Y1.77300
X2.26800 Y1.77200
X2.26600 Y1.77200
X2.26600 Y1.77100
X2.26500 Y1.77100
X2.26500 Y1.77000
X2.26300 Y1.77000
X2.26300 Y1.76900
X2.26200 Y1.76900
X2.26200 Y1.76800
X2.26100 Y1.76800
X2.26100 Y1.76700
X2.26000 Y1.76700
X2.26000 Y1.76600
X2.25900 Y1.76600
X2.25900 Y1.76500
X2.25800 Y1.76500
X2.25800 Y1.76400
X2.25700 Y1.76400
X2.25700 Y1.76200
X2.25600 Y1.76200
X2.25600 Y1.76000
X2.25500 Y1.76000
X2.25500 Y1.75900
X2.25400 Y1.75900
X2.25400 Y1.75700
X2.25300 Y1.75700
X2.25300 Y1.75300
X2.25200 Y1.75300
X2.25200 Y1.75000
X2.25100 Y1.75000
X2.25100 Y1.70100
X2.25200 Y1.70100
X2.25200 Y1.69800
X2.25300 Y1.69800
X2.25300 Y1.69400
X2.25400 Y1.69400
X2.25400 Y1.69200
X2.25500 Y1.69200
X2.25500 Y1.69100
X2.25600 Y1.69100
X2.25600 Y1.68900
X2.25700 Y1.68900
X2.25700 Y1.68700
X2.25800 Y1.68700
X2.25800 Y1.68600
X2.25900 Y1.68600
X2.25900 Y1.68500
X2.26000 Y1.68500
X2.26000 Y1.68400
X2.26100 Y1.68400
X2.26100 Y1.68300
X2.26200 Y1.68300
X2.26200 Y1.68200
X2.26300 Y1.68200
X2.26300 Y1.68100
X2.26500 Y1.68100
X2.26500 Y1.68000
X2.26600 Y1.68000
X2.26600 Y1.67900
X2.26800 Y1.67900
X2.26800 Y1.67800
X2.27000 Y1.67800
X2.27000 Y1.67700
X2.27100 Y1.67700
X2.27100 Y1.67600
X2.27300 Y1.67600
X2.27300 Y1.67500
X2.33400 Y1.67500
X2.33400 Y1.67600
X2.33600 Y1.67600
X2.33600 Y1.67700
X2.33700 Y1.67700
X2.33700 Y1.67800
X2.33900 Y1.67800
X2.33900 Y1.67900
X2.34100 Y1.67900
X2.34100 Y1.68000
X2.34200 Y1.68000
X2.34200 Y1.68100
X2.34400 Y1.68100
X2.34400 Y1.68200
X2.34500 Y1.68200
X2.34500 Y1.68300
X2.34600 Y1.68300
X2.34600 Y1.68400
X2.34700 Y1.68400
X2.34700 Y1.68500
X2.34800 Y1.68500
X2.34800 Y1.68600
X2.34900 Y1.68600
X2.34900 Y1.68700
X2.35000 Y1.68700
X2.35000 Y1.68900
X2.35100 Y1.68900
X2.35100 Y1.69000
X2.35200 Y1.69000
X2.35200 Y1.69200
X2.35300 Y1.69200
X2.35300 Y1.69400
X2.35400 Y1.69400
X2.35400 Y1.69700
X2.35500 Y1.69700
X2.35500 Y1.70100
X2.35600 Y1.70100
X2.35600 Y1.71500
X2.35700 Y1.71500
X2.35700 Y1.71600
X2.35900 Y1.71600
X2.35900 Y1.71700
X2.36100 Y1.71700
X2.36100 Y1.71800
X2.36300 Y1.71800
X2.36300 Y1.71900
X2.36500 Y1.71900
X2.36500 Y1.72000
X2.36700 Y1.72000
X2.36700 Y1.72100
X2.36900 Y1.72100
X2.36900 Y1.72200
X2.37100 Y1.72200
X2.37100 Y1.72300
X2.37300 Y1.72300
X2.37300 Y1.72400
X2.37500 Y1.72400
X2.37500 Y1.72500
X2.37700 Y1.72500
X2.37700 Y1.72600
X2.37900 Y1.72600
X2.37900 Y1.72700
X2.38100 Y1.72700
X2.38100 Y1.72800
X2.38300 Y1.72800
X2.38300 Y1.72900
X2.38500 Y1.72900
X2.38500 Y1.73000
X2.38700 Y1.73000
X2.38700 Y1.73100
X2.38900 Y1.73100
X2.38900 Y1.73200
X2.39100 Y1.73200
X2.39100 Y1.73300
X2.39300 Y1.73300
X2.39300 Y1.73400
X2.39500 Y1.73400
X2.39500 Y1.73500
X2.39700 Y1.73500
X2.39700 Y1.73600
X2.39900 Y1.73600
X2.39900 Y1.73700
X2.40100 Y1.73700
X2.40100 Y1.73800
X2.40300 Y1.73800
X2.40300 Y1.73900
X2.40500 Y1.73900
X2.40500 Y1.74000
X2.40700 Y1.74000
X2.40700 Y1.74100
X2.40900 Y1.74100
X2.40900 Y1.74200
X2.41100 Y1.74200
X2.41100 Y1.74300
X2.41300 Y1.74300
X2.41300 Y1.74400
X2.41500 Y1.74400
X2.41500 Y1.74500
X2.41700 Y1.74500
X2.41700 Y1.74600
X2.41900 Y1.74600
X2.41900 Y1.74700
X2.42100 Y1.74700
X2.42100 Y1.74800
X2.42300 Y1.74800
X2.42300 Y1.74900
X2.42500 Y1.74900
X2.42500 Y1.75000
X2.42700 Y1.75000
X2.42700 Y1.75100
X2.42900 Y1.75100
X2.42900 Y1.75200
X2.43100 Y1.75200
X2.43100 Y1.75300
X2.43200 Y1.75300
X2.43200 Y1.75400
X2.43400 Y1.75400
X2.43400 Y1.75500
X2.43600 Y1.75500
X2.43600 Y1.75600
X2.43800 Y1.75600
X2.43800 Y1.75700
X2.44000 Y1.75700
X2.44000 Y1.75800
X2.44200 Y1.75800
X2.44200 Y1.75900
X2.44400 Y1.75900
X2.44400 Y1.76000
X2.44600 Y1.76000
X2.44600 Y1.76100
X2.44800 Y1.76100
X2.44800 Y1.76200
X2.45000 Y1.76200
X2.45000 Y1.76300
X2.45200 Y1.76300
X2.45200 Y1.76400
X2.45400 Y1.76400
X2.45400 Y1.76500
X2.45600 Y1.76500
X2.45600 Y1.76600
X2.45800 Y1.76600
X2.45800 Y1.76700
X2.46000 Y1.76700
X2.46000 Y1.76800
X2.46200 Y1.76800
X2.46200 Y1.76900
X2.46400 Y1.76900
X2.46400 Y1.77000
X2.46600 Y1.77000
X2.46600 Y1.77100
X2.46800 Y1.77100
X2.46800 Y1.77200
X2.47000 Y1.77200
X2.47000 Y1.77300
X2.47200 Y1.77300
X2.47200 Y1.77400
X2.47400 Y1.77400
X2.47400 Y1.77500
X2.47600 Y1.77500
X2.47600 Y1.77600
X2.47800 Y1.77600
X2.47800 Y1.77700
X2.48000 Y1.77700
X2.48000 Y1.77800
X2.48200 Y1.77800
X2.48200 Y1.77900
X2.48400 Y1.77900
X2.48400 Y1.78000
X2.48600 Y1.78000
X2.48600 Y1.78100
X2.48800 Y1.78100
X2.48800 Y1.78200
X2.49000 Y1.78200
X2.49000 Y1.78300
X2.49200 Y1.78300
X2.49200 Y1.78400
X2.49400 Y1.78400
X2.49400 Y1.78500
X2.49600 Y1.78500
X2.49600 Y1.78600
X2.49800 Y1.78600
X2.49800 Y1.78700
X2.50000 Y1.78700
X2.50000 Y1.78800
X2.50200 Y1.78800
X2.50200 Y1.78900
X2.50400 Y1.78900
X2.50400 Y1.79000
X2.50600 Y1.79000
X2.50600 Y1.79100
X2.50800 Y1.79100
X2.50800 Y1.79200
X2.51000 Y1.79200
X2.51000 Y1.79300
X2.51200 Y1.79300
X2.51200 Y1.79400
X2.51400 Y1.79400
X2.51400 Y1.79500
X2.51600 Y1.79500
X2.51600 Y1.79600
X2.51800 Y1.79600
X2.51800 Y1.79700
X2.52000 Y1.79700
X2.52000 Y1.79800
X2.52200 Y1.79800
X2.52200 Y1.79900
X2.52400 Y1.79900
X2.52400 Y1.80000
X2.52600 Y1.80000
X2.52600 Y1.80100
X2.52800 Y1.80100
X2.52800 Y1.80200
X2.53000 Y1.80200
X2.53000 Y1.80300
X2.53200 Y1.80300
X2.53200 Y1.80400
X2.53400 Y1.80400
X2.53400 Y1.80500
X2.53600 Y1.80500
X2.53600 Y1.80600
X2.53800 Y1.80600
X2.53800 Y1.80700
X2.54000 Y1.80700
X2.54000 Y1.80800
X2.54200 Y1.80800
X2.54200 Y1.80900
X2.54400 Y1.80900
X2.54400 Y1.81000
X2.54600 Y1.81000
X2.54600 Y1.81100
X2.54800 Y1.81100
X2.54800 Y1.81200
X2.55000 Y1.81200
X2.55000 Y1.81300
X2.55200 Y1.81300
X2.55200 Y1.81400
X2.55400 Y1.81400
X2.55400 Y1.81500
X2.55600 Y1.81500
X2.55600 Y1.81600
X2.55800 Y1.81600
X2.55800 Y1.81700
X2.56000 Y1.81700
X2.56000 Y1.81800
X2.56200 Y1.81800
X2.56200 Y1.81900
X2.56400 Y1.81900
X2.56400 Y1.82000
X2.56600 Y1.82000
X2.56600 Y1.82100
X2.56800 Y1.82100
X2.56800 Y1.82200
X2.57000 Y1.82200
X2.57000 Y1.82300
X2.57200 Y1.82300
X2.57200 Y1.82400
X2.57400 Y1.82400
X2.57400 Y1.82500
X2.57600 Y1.82500
X2.57600 Y1.82600
X2.57800 Y1.82600
X2.57800 Y1.82700
X2.58000 Y1.82700
X2.58000 Y1.82800
X2.58200 Y1.82800
X2.58200 Y1.82900
X2.58400 Y1.82900
X2.58400 Y1.83000
X2.58600 Y1.83000
X2.58600 Y1.83100
X2.58800 Y1.83100
X2.58800 Y1.83200
X2.59000 Y1.83200
X2.59000 Y1.83300
X2.59200 Y1.83300
X2.59200 Y1.83400
X2.59400 Y1.83400
X2.59400 Y1.83500
X2.59600 Y1.83500
X2.59600 Y1.83600
X2.59800 Y1.83600
X2.59800 Y1.83700
X2.60000 Y1.83700
X2.60000 Y1.83800
X2.60200 Y1.83800
X2.60200 Y1.83900
X2.60400 Y1.83900
X2.60400 Y1.84000
X2.60600 Y1.84000
X2.60600 Y1.84100
X2.60800 Y1.84100
X2.60800 Y1.84200
X2.61000 Y1.84200
X2.61000 Y1.84300
X2.61200 Y1.84300
X2.61200 Y1.84400
X2.61400 Y1.84400
X2.61400 Y1.84500
X2.61600 Y1.84500
X2.61600 Y1.84600
X2.61800 Y1.84600
X2.61800 Y1.84700
X2.62000 Y1.84700
X2.62000 Y1.84800
X2.62200 Y1.84800
X2.62200 Y1.84900
X2.62400 Y1.84900
X2.62400 Y1.85000
X2.62600 Y1.85000
X2.62600 Y1.85100
X2.62800 Y1.85100
X2.62800 Y1.85200
X2.63000 Y1.85200
X2.63000 Y1.85300
X2.63200 Y1.85300
X2.63200 Y1.85400
X2.63400 Y1.85400
X2.63400 Y1.85500
X2.63600 Y1.85500
X2.63600 Y1.85600
X2.63800 Y1.85600
X2.63800 Y1.85700
X2.64000 Y1.85700
X2.64000 Y1.85800
X2.64200 Y1.85800
X2.64200 Y1.85900
X2.64400 Y1.85900
X2.64400 Y1.86000
X2.64600 Y1.86000
X2.64600 Y1.86100
X2.64800 Y1.86100
X2.64800 Y1.86200
X2.65000 Y1.86200
X2.65000 Y1.86300
X2.65200 Y1.86300
X2.65200 Y1.86400
X2.65400 Y1.86400
X2.65400 Y1.86500
X2.65600 Y1.86500
X2.65600 Y1.86600
X2.65800 Y1.86600
X2.65800 Y1.86700
X2.66000 Y1.86700
X2.66000 Y1.86800
X2.66200 Y1.86800
X2.66200 Y1.86900
X2.66400 Y1.86900
X2.66400 Y1.87000
X2.66600 Y1.87000
X2.66600 Y1.87100
X2.66800 Y1.87100
X2.66800 Y1.87200
X2.66900 Y1.87200
X2.66900 Y1.87300
X2.67100 Y1.87300
X2.67100 Y1.87400
X2.67300 Y1.87400
X2.67300 Y1.87500
X2.67500 Y1.87500
X2.67500 Y1.87600
X2.67700 Y1.87600
X2.67700 Y1.87700
X2.67900 Y1.87700
X2.67900 Y1.87800
X2.68100 Y1.87800
X2.68100 Y1.87900
X2.68300 Y1.87900
X2.68300 Y1.88000
X2.68500 Y1.88000
X2.68500 Y1.88100
X2.68700 Y1.88100
X2.68700 Y1.88200
X2.68900 Y1.88200
X2.68900 Y1.88300
X2.69100 Y1.88300
X2.69100 Y1.88400
X2.69300 Y1.88400
X2.69300 Y1.88500
X2.69500 Y1.88500
X2.69500 Y1.88600
X2.69700 Y1.88600
X2.69700 Y1.88700
X2.69900 Y1.88700
X2.69900 Y1.88800
X2.70100 Y1.88800
X2.70100 Y1.88900
X2.70300 Y1.88900
X2.70300 Y1.89000
X2.70500 Y1.89000
X2.70500 Y1.89100
X2.70700 Y1.89100
X2.70700 Y1.89200
X2.70900 Y1.89200
X2.70900 Y1.89300
X2.71100 Y1.89300
X2.71100 Y1.89400
X2.71300 Y1.89400
X2.71300 Y1.89500
X2.71500 Y1.89500
X2.71500 Y1.89600
X2.71700 Y1.89600
X2.71700 Y1.89700
X2.71900 Y1.89700
X2.71900 Y1.89800
X2.72100 Y1.89800
X2.72100 Y1.89900
X2.72300 Y1.89900
X2.72300 Y1.90000
X2.72500 Y1.90000
X2.72500 Y1.90100
X2.72700 Y1.90100
X2.72700 Y1.90200
X2.72900 Y1.90200
X2.72900 Y1.90300
X2.73100 Y1.90300
X2.73100 Y1.90400
X2.73300 Y1.90400
X2.73300 Y1.90500
X2.73500 Y1.90500
X2.73500 Y1.90600
X2.73700 Y1.90600
X2.73700 Y1.90700
X2.73900 Y1.90700
X2.73900 Y1.90800
X2.74100 Y1.90800
X2.74100 Y1.90900
X2.74300 Y1.90900
X2.74300 Y1.91000
X2.74500 Y1.91000
X2.74500 Y1.91100
X2.74700 Y1.91100
X2.74700 Y1.91200
X2.74900 Y1.91200
X2.74900 Y1.91300
X2.75100 Y1.91300
X2.75100 Y1.91400
X2.75300 Y1.91400
X2.75300 Y1.91500
X2.75500 Y1.91500
X2.75500 Y1.91600
X2.75700 Y1.91600
X2.75700 Y1.91700
X2.75900 Y1.91700
X2.75900 Y1.91800
X2.76100 Y1.91800
X2.76100 Y1.91900
X2.76300 Y1.91900
X2.76300 Y1.92000
X2.76500 Y1.92000
X2.76500 Y1.92100
X2.76700 Y1.92100
X2.76700 Y1.92200
X2.76900 Y1.92200
X2.76900 Y1.92300
X2.77100 Y1.92300
X2.77100 Y1.92400
X2.77300 Y1.92400
X2.77300 Y1.92500
X2.77500 Y1.92500
X2.77500 Y1.92600
X2.77700 Y1.92600
X2.77700 Y1.92700
X2.77900 Y1.92700
X2.77900 Y1.92800
X2.78100 Y1.92800
X2.78100 Y1.92900
X2.78300 Y1.92900
X2.78300 Y1.93000
X2.78500 Y1.93000
X2.78500 Y1.93100
X2.78700 Y1.93100
X2.78700 Y1.93200
X2.78900 Y1.93200
X2.78900 Y1.93300
X2.79100 Y1.93300
X2.79100 Y1.93400
X2.79300 Y1.93400
X2.79300 Y1.93500
X2.79500 Y1.93500
X2.79500 Y1.93600
X2.79700 Y1.93600
X2.79700 Y1.93700
X2.79900 Y1.93700
X2.79900 Y1.93800
X2.80100 Y1.93800
X2.80100 Y1.93900
X2.80300 Y1.93900
X2.80300 Y1.94000
X2.80500 Y1.94000
X2.80500 Y1.94100
X2.80700 Y1.94100
X2.80700 Y1.94200
X2.80900 Y1.94200
X2.80900 Y1.94300
X2.81100 Y1.94300
X2.81100 Y1.94400
X2.81300 Y1.94400
X2.81300 Y1.94500
X2.81500 Y1.94500
X2.81500 Y1.94600
X2.81700 Y1.94600
X2.81700 Y1.94700
X2.81900 Y1.94700
X2.81900 Y1.94800
X2.82100 Y1.94800
X2.82100 Y1.94900
X2.82300 Y1.94900
X2.82300 Y1.95000
X2.82500 Y1.95000
X2.82500 Y1.95100
X2.82600 Y1.95100
X2.82600 Y1.95200
X2.82800 Y1.95200
X2.82800 Y1.95300
X2.82900 Y1.95300
X2.82900 Y1.95400
X2.83000 Y1.95400
X2.83000 Y1.95500
X2.83100 Y1.95500
X2.83100 Y1.95700
X2.83200 Y1.95700
X2.83200 Y1.95900
X2.83300 Y1.95900
X2.83300 Y1.96300
X2.83400 Y1.96300
X2.83400 Y1.96700
X2.83500 Y1.96700
X2.83500 Y1.97100
X2.83600 Y1.97100
X2.83600 Y1.97500
X2.83700 Y1.97500
X2.83700 Y1.97900
X2.83800 Y1.97900
X2.83800 Y1.98300
X2.83900 Y1.98300
X2.83900 Y1.98700
X2.84000 Y1.98700
X2.84000 Y1.99100
X2.84100 Y1.99100
X2.84100 Y1.99500
X2.84200 Y1.99500
X2.84200 Y1.99900
X2.84300 Y1.99900
X2.84300 Y2.00300
X2.84400 Y2.00300
X2.84400 Y2.00700
X2.84500 Y2.00700
X2.84500 Y2.01100
X2.84600 Y2.01100
X2.84600 Y2.01500
X2.84700 Y2.01500
X2.84700 Y2.01900
X2.84800 Y2.01900
X2.84800 Y2.02300
X2.84900 Y2.02300
X2.84900 Y2.02800
X2.85000 Y2.02800
X2.85000 Y2.03200
X2.85100 Y2.03200
X2.85100 Y2.03600
X2.85200 Y2.03600
X2.85200 Y2.04000
X2.85300 Y2.04000
X2.85300 Y2.04400
X2.85400 Y2.04400
X2.85400 Y2.04800
X2.85500 Y2.04800
X2.85500 Y2.05200
X2.85600 Y2.05200
X2.85600 Y2.05600
X2.85700 Y2.05600
X2.85700 Y2.06000
X2.85800 Y2.06000
X2.85800 Y2.06400
X2.85900 Y2.06400
X2.85900 Y2.06800
X2.86000 Y2.06800
X2.86000 Y2.07200
X2.86100 Y2.07200
X2.86100 Y2.07600
X2.86200 Y2.07600
X2.86200 Y2.08000
X2.86300 Y2.08000
X2.86300 Y2.08400
X2.86400 Y2.08400
X2.86400 Y2.08800
X2.86500 Y2.08800
X2.86500 Y2.09300
X2.86600 Y2.09300
X2.86600 Y2.09700
X2.86700 Y2.09700
X2.86700 Y2.10100
X2.86800 Y2.10100
X2.86800 Y2.10500
X2.86900 Y2.10500
X2.86900 Y2.10900
X2.87000 Y2.10900
X2.87000 Y2.11300
X2.87100 Y2.11300
X2.87100 Y2.11700
X2.87200 Y2.11700
X2.87200 Y2.12100
X2.87300 Y2.12100
X2.87300 Y2.12500
X2.87400 Y2.12500
X2.87400 Y2.12900
X2.87500 Y2.12900
X2.87500 Y2.13300
X2.87600 Y2.13300
X2.87600 Y2.13700
X2.87700 Y2.13700
X2.87700 Y2.14100
X2.87800 Y2.14100
X2.87800 Y2.14500
X2.87900 Y2.14500
X2.87900 Y2.14900
X2.88000 Y2.14900
X2.88000 Y2.15300
X2.88100 Y2.15300
X2.88100 Y2.15700
X2.88200 Y2.15700
X2.88200 Y2.19500
X2.88100 Y2.19500
X2.88100 Y2.19700
X2.88000 Y2.19700
X2.88000 Y2.19900
X2.87900 Y2.19900
X2.87900 Y2.20000
X2.87800 Y2.20000
X2.87800 Y2.20100
X2.87700 Y2.20100
X2.87700 Y2.20200
X2.87600 Y2.20200
X2.87600 Y2.20300
X2.87400 Y2.20300
X2.87400 Y2.20400
X2.87300 Y2.20400
X2.87300 Y2.20500
X2.87100 Y2.20500
X2.87100 Y2.20600
X2.87000 Y2.20600
X2.87000 Y2.20700
X2.86800 Y2.20700
X2.86800 Y2.20800
X2.86600 Y2.20800
X2.86600 Y2.20900
X2.86500 Y2.20900
X2.86500 Y2.21000
X2.86300 Y2.21000
X2.86300 Y2.21100
X2.86200 Y2.21100
X2.86200 Y2.21200
X2.86000 Y2.21200
X2.86000 Y2.21300
X2.85900 Y2.21300
X2.85900 Y2.21400
X2.85700 Y2.21400
X2.85700 Y2.21500
X2.85500 Y2.21500
X2.85500 Y2.21600
X2.85400 Y2.21600
X2.85400 Y2.21700
X2.85200 Y2.21700
X2.85200 Y2.21800
X2.85100 Y2.21800
X2.85100 Y2.21900
X2.84900 Y2.21900
X2.84900 Y2.22000
X2.84800 Y2.22000
X2.84800 Y2.22100
X2.84600 Y2.22100
X2.84600 Y2.22200
X2.84400 Y2.22200
X2.84400 Y2.22300
X2.84300 Y2.22300
X2.84300 Y2.22400
X2.84100 Y2.22400
X2.84100 Y2.22500
X2.84000 Y2.22500
X2.84000 Y2.22600
X2.83800 Y2.22600
X2.83800 Y2.22700
X2.83700 Y2.22700
X2.83700 Y2.22800
X2.83500 Y2.22800
X2.83500 Y2.22900
X2.83300 Y2.22900
X2.83300 Y2.23000
X2.83200 Y2.23000
X2.83200 Y2.23100
X2.83000 Y2.23100
X2.83000 Y2.23200
X2.82900 Y2.23200
X2.82900 Y2.23300
X2.82700 Y2.23300
X2.82700 Y2.23400
X2.82600 Y2.23400
X2.82600 Y2.23500
X2.82400 Y2.23500
X2.82400 Y2.23600
X2.82200 Y2.23600
X2.82200 Y2.23700
X2.82100 Y2.23700
X2.82100 Y2.23800
X2.81900 Y2.23800
X2.81900 Y2.23900
X2.81800 Y2.23900
X2.81800 Y2.24000
X2.81600 Y2.24000
X2.81600 Y2.24100
X2.81500 Y2.24100
X2.81500 Y2.24200
X2.81300 Y2.24200
X2.81300 Y2.24300
X2.81100 Y2.24300
X2.81100 Y2.24400
X2.81000 Y2.24400
X2.81000 Y2.24500
X2.80800 Y2.24500
X2.80800 Y2.24600
X2.80700 Y2.24600
X2.80700 Y2.24700
X2.80500 Y2.24700
X2.80500 Y2.24800
X2.80400 Y2.24800
X2.80400 Y2.24900
X2.80200 Y2.24900
X2.80200 Y2.25000
X2.80000 Y2.25000
X2.80000 Y2.25100
X2.79900 Y2.25100
X2.79900 Y2.25200
X2.79700 Y2.25200
X2.79700 Y2.25300
X2.79600 Y2.25300
X2.79600 Y2.25400
X2.79400 Y2.25400
X2.79400 Y2.25500
X2.79300 Y2.25500
X2.79300 Y2.25600
X2.79100 Y2.25600
X2.79100 Y2.25700
X2.78900 Y2.25700
X2.78900 Y2.25800
X2.78800 Y2.25800
X2.78800 Y2.25900
X2.78600 Y2.25900
X2.78600 Y2.26000
X2.78500 Y2.26000
X2.78500 Y2.26100
X2.78300 Y2.26100
X2.78300 Y2.26200
X2.78200 Y2.26200
X2.78200 Y2.26300
X2.78000 Y2.26300
X2.78000 Y2.26400
X2.77800 Y2.26400
X2.77800 Y2.26500
X2.77700 Y2.26500
X2.77700 Y2.26600
X2.77500 Y2.26600
X2.77500 Y2.26700
X2.77400 Y2.26700
X2.77400 Y2.26800
X2.77200 Y2.26800
X2.77200 Y2.26900
X2.77100 Y2.26900
X2.77100 Y2.27000
X2.76900 Y2.27000
X2.76900 Y2.27100
X2.76700 Y2.27100
X2.76700 Y2.27200
X2.76600 Y2.27200
X2.76600 Y2.27300
X2.76400 Y2.27300
X2.76400 Y2.27400
X2.76300 Y2.27400
X2.76300 Y2.27500
X2.76100 Y2.27500
X2.76100 Y2.27600
X2.76100 Y2.27600
X2.76100 Y2.27700
X2.76300 Y2.27700
X2.76300 Y2.27800
X2.76400 Y2.27800
X2.76400 Y2.27900
X2.76600 Y2.27900
X2.76600 Y2.28000
X2.76700 Y2.28000
X2.76700 Y2.28100
X2.76900 Y2.28100
X2.76900 Y2.28200
X2.77100 Y2.28200
X2.77100 Y2.28300
X2.77200 Y2.28300
X2.77200 Y2.28400
X2.77400 Y2.28400
X2.77400 Y2.28500
X2.77500 Y2.28500
X2.77500 Y2.28600
X2.77700 Y2.28600
X2.77700 Y2.28700
X2.77800 Y2.28700
X2.77800 Y2.28800
X2.78000 Y2.28800
X2.78000 Y2.28900
X2.78200 Y2.28900
X2.78200 Y2.29000
X2.78300 Y2.29000
X2.78300 Y2.29100
X2.78500 Y2.29100
X2.78500 Y2.29200
X2.78600 Y2.29200
X2.78600 Y2.29300
X2.78800 Y2.29300
X2.78800 Y2.29400
X2.78900 Y2.29400
X2.78900 Y2.29500
X2.79100 Y2.29500
X2.79100 Y2.29600
X2.79300 Y2.29600
X2.79300 Y2.29700
X2.79400 Y2.29700
X2.79400 Y2.29800
X2.79600 Y2.29800
X2.79600 Y2.29900
X2.79700 Y2.29900
X2.79700 Y2.30000
X2.79900 Y2.30000
X2.79900 Y2.30100
X2.80000 Y2.30100
X2.80000 Y2.30200
X2.80200 Y2.30200
X2.80200 Y2.30300
X2.80400 Y2.30300
X2.80400 Y2.30400
X2.80500 Y2.30400
X2.80500 Y2.30500
X2.80700 Y2.30500
X2.80700 Y2.30600
X2.80800 Y2.30600
X2.80800 Y2.30700
X2.81000 Y2.30700
X2.81000 Y2.30800
X2.81100 Y2.30800
X2.81100 Y2.30900
X2.81300 Y2.30900
X2.81300 Y2.31000
X2.81500 Y2.31000
X2.81500 Y2.31100
X2.81600 Y2.31100
X2.81600 Y2.31200
X2.81800 Y2.31200
X2.81800 Y2.31300
X2.81900 Y2.31300
X2.81900 Y2.31400
X2.82100 Y2.31400
X2.82100 Y2.31500
X2.82200 Y2.31500
X2.82200 Y2.31600
X2.82400 Y2.31600
X2.82400 Y2.31700
X2.82600 Y2.31700
X2.82600 Y2.31800
X2.82700 Y2.31800
X2.82700 Y2.31900
X2.82900 Y2.31900
X2.82900 Y2.32000
X2.83000 Y2.32000
X2.83000 Y2.32100
X2.83200 Y2.32100
X2.83200 Y2.32200
X2.83300 Y2.32200
X2.83300 Y2.32300
X2.83500 Y2.32300
X2.83500 Y2.32400
X2.83700 Y2.32400
X2.83700 Y2.32500
X2.83800 Y2.32500
X2.83800 Y2.32600
X2.84000 Y2.32600
X2.84000 Y2.32700
X2.84100 Y2.32700
X2.84100 Y2.32800
X2.84300 Y2.32800
X2.84300 Y2.32900
X2.84400 Y2.32900
X2.84400 Y2.33000
X2.84600 Y2.33000
X2.84600 Y2.33100
X2.84800 Y2.33100
X2.84800 Y2.33200
X2.84900 Y2.33200
X2.84900 Y2.33300
X2.85100 Y2.33300
X2.85100 Y2.33400
X2.85200 Y2.33400
X2.85200 Y2.33500
X2.85400 Y2.33500
X2.85400 Y2.33600
X2.85500 Y2.33600
X2.85500 Y2.33700
X2.85700 Y2.33700
X2.85700 Y2.33800
X2.85900 Y2.33800
X2.85900 Y2.33900
X2.86000 Y2.33900
X2.86000 Y2.34000
X2.86200 Y2.34000
X2.86200 Y2.34100
X2.86300 Y2.34100
X2.86300 Y2.34200
X2.86500 Y2.34200
X2.86500 Y2.34300
X2.86600 Y2.34300
X2.86600 Y2.34400
X2.86800 Y2.34400
X2.86800 Y2.34500
X2.87000 Y2.34500
X2.87000 Y2.34600
X2.87100 Y2.34600
X2.87100 Y2.34700
X2.87300 Y2.34700
X2.87300 Y2.34800
X2.87400 Y2.34800
X2.87400 Y2.34900
X2.87600 Y2.34900
X2.87600 Y2.35000
X2.87700 Y2.35000
X2.87700 Y2.35100
X2.87800 Y2.35100
X2.87800 Y2.35200
X2.87900 Y2.35200
X2.87900 Y2.35300
X2.88000 Y2.35300
X2.88000 Y2.35500
X2.88100 Y2.35500
X2.88100 Y2.35700
X2.88200 Y2.35700
X2.88200 Y2.59400
X2.88100 Y2.59400
X2.88100 Y2.59600
X2.88000 Y2.59600
X2.88000 Y2.59800
X2.87900 Y2.59800
X2.87900 Y2.59900
X2.87800 Y2.59900
X2.87800 Y2.60000
X2.87700 Y2.60000
X2.87700 Y2.60100
X2.87600 Y2.60100
X2.87600 Y2.60200
X2.87400 Y2.60200
X2.87400 Y2.60300
X2.87300 Y2.60300
X2.87300 Y2.60400
X2.87100 Y2.60400
X2.87100 Y2.60500
X2.87000 Y2.60500
X2.87000 Y2.60600
X2.86800 Y2.60600
X2.86800 Y2.60700
X2.86700 Y2.60700
X2.86700 Y2.60800
X2.86500 Y2.60800
X2.86500 Y2.60900
X2.86300 Y2.60900
X2.86300 Y2.61000
X2.86200 Y2.61000
X2.86200 Y2.61100
X2.86000 Y2.61100
X2.86000 Y2.61200
X2.85900 Y2.61200
X2.85900 Y2.61300
X2.85700 Y2.61300
X2.85700 Y2.61400
X2.85600 Y2.61400
X2.85600 Y2.61500
X2.85400 Y2.61500
X2.85400 Y2.61600
X2.85300 Y2.61600
X2.85300 Y2.61700
X2.85100 Y2.61700
X2.85100 Y2.61800
X2.84900 Y2.61800
X2.84900 Y2.61900
X2.84800 Y2.61900
X2.84800 Y2.62000
X2.84600 Y2.62000
X2.84600 Y2.62100
X2.84500 Y2.62100
X2.84500 Y2.62200
X2.84300 Y2.62200
X2.84300 Y2.62300
X2.84200 Y2.62300
X2.84200 Y2.62400
X2.84000 Y2.62400
X2.84000 Y2.62500
X2.83900 Y2.62500
X2.83900 Y2.62600
X2.83700 Y2.62600
X2.83700 Y2.62700
X2.83500 Y2.62700
X2.83500 Y2.62800
X2.83400 Y2.62800
X2.83400 Y2.62900
X2.83200 Y2.62900
X2.83200 Y2.63000
X2.83100 Y2.63000
X2.83100 Y2.63100
X2.82900 Y2.63100
X2.82900 Y2.63200
X2.82800 Y2.63200
X2.82800 Y2.63300
X2.82600 Y2.63300
X2.82600 Y2.63400
X2.82500 Y2.63400
X2.82500 Y2.63500
X2.82300 Y2.63500
X2.82300 Y2.63600
X2.82200 Y2.63600
X2.82200 Y2.63700
X2.82000 Y2.63700
X2.82000 Y2.63800
X2.81800 Y2.63800
X2.81800 Y2.63900
X2.81700 Y2.63900
X2.81700 Y2.64000
X2.81500 Y2.64000
X2.81500 Y2.64100
X2.81400 Y2.64100
X2.81400 Y2.64200
X2.81200 Y2.64200
X2.81200 Y2.64300
X2.81100 Y2.64300
X2.81100 Y2.64400
X2.80900 Y2.64400
X2.80900 Y2.64500
X2.80800 Y2.64500
X2.80800 Y2.64600
X2.80600 Y2.64600
X2.80600 Y2.64700
X2.80400 Y2.64700
X2.80400 Y2.64800
X2.80300 Y2.64800
X2.80300 Y2.64900
X2.80100 Y2.64900
X2.80100 Y2.65000
X2.80000 Y2.65000
X2.80000 Y2.65100
X2.79800 Y2.65100
X2.79800 Y2.65200
X2.79700 Y2.65200
X2.79700 Y2.65300
X2.79500 Y2.65300
X2.79500 Y2.65400
X2.79400 Y2.65400
X2.79400 Y2.65500
X2.79200 Y2.65500
X2.79200 Y2.65600
X2.79000 Y2.65600
X2.79000 Y2.65700
X2.78900 Y2.65700
X2.78900 Y2.65800
X2.78700 Y2.65800
X2.78700 Y2.65900
X2.78600 Y2.65900
X2.78600 Y2.66000
X2.78400 Y2.66000
X2.78400 Y2.66100
X2.78300 Y2.66100
X2.78300 Y2.66200
X2.78100 Y2.66200
X2.78100 Y2.66300
X2.78000 Y2.66300
X2.78000 Y2.66400
X2.77800 Y2.66400
X2.77800 Y2.66500
X2.77600 Y2.66500
X2.77600 Y2.66600
X2.77500 Y2.66600
X2.77500 Y2.66700
X2.77300 Y2.66700
X2.77300 Y2.66800
X2.77200 Y2.66800
X2.77200 Y2.66900
X2.77000 Y2.66900
X2.77000 Y2.67000
X2.76900 Y2.67000
X2.76900 Y2.67100
X2.76700 Y2.67100
X2.76700 Y2.67200
X2.76600 Y2.67200
X2.76600 Y2.67300
X2.76400 Y2.67300
X2.76400 Y2.67400
X2.76200 Y2.67400
X2.76200 Y2.67500
X2.76100 Y2.67500
X2.76100 Y2.67600
X2.76000 Y2.67600
X2.76000 Y2.67700
X2.76200 Y2.67700
X2.76200 Y2.67800
X2.76300 Y2.67800
X2.76300 Y2.67900
X2.76500 Y2.67900
X2.76500 Y2.68000
X2.76600 Y2.68000
X2.76600 Y2.68100
X2.76800 Y2.68100
X2.76800 Y2.68200
X2.76900 Y2.68200
X2.76900 Y2.68300
X2.77100 Y2.68300
X2.77100 Y2.68400
X2.77300 Y2.68400
X2.77300 Y2.68500
X2.77400 Y2.68500
X2.77400 Y2.68600
X2.77600 Y2.68600
X2.77600 Y2.68700
X2.77700 Y2.68700
X2.77700 Y2.68800
X2.77900 Y2.68800
X2.77900 Y2.68900
X2.78000 Y2.68900
X2.78000 Y2.69000
X2.78200 Y2.69000
X2.78200 Y2.69100
X2.78400 Y2.69100
X2.78400 Y2.69200
X2.78500 Y2.69200
X2.78500 Y2.69300
X2.78700 Y2.69300
X2.78700 Y2.69400
X2.78800 Y2.69400
X2.78800 Y2.69500
X2.79000 Y2.69500
X2.79000 Y2.69600
X2.79100 Y2.69600
X2.79100 Y2.69700
X2.79300 Y2.69700
X2.79300 Y2.69800
X2.79500 Y2.69800
X2.79500 Y2.69900
X2.79600 Y2.69900
X2.79600 Y2.70000
X2.79800 Y2.70000
X2.79800 Y2.70100
X2.79900 Y2.70100
X2.79900 Y2.70200
X2.80100 Y2.70200
X2.80100 Y2.70300
X2.80200 Y2.70300
X2.80200 Y2.70400
X2.80400 Y2.70400
X2.80400 Y2.70500
X2.80500 Y2.70500
X2.80500 Y2.70600
X2.80700 Y2.70600
X2.80700 Y2.70700
X2.80900 Y2.70700
X2.80900 Y2.70800
X2.81000 Y2.70800
X2.81000 Y2.70900
X2.81200 Y2.70900
X2.81200 Y2.71000
X2.81300 Y2.71000
X2.81300 Y2.71100
X2.81500 Y2.71100
X2.81500 Y2.71200
X2.81600 Y2.71200
X2.81600 Y2.71300
X2.81800 Y2.71300
X2.81800 Y2.71400
X2.82000 Y2.71400
X2.82000 Y2.71500
X2.82100 Y2.71500
X2.82100 Y2.71600
X2.82300 Y2.71600
X2.82300 Y2.71700
X2.82400 Y2.71700
X2.82400 Y2.71800
X2.82600 Y2.71800
X2.82600 Y2.71900
X2.82700 Y2.71900
X2.82700 Y2.72000
X2.82900 Y2.72000
X2.82900 Y2.72100
X2.83000 Y2.72100
X2.83000 Y2.72200
X2.83200 Y2.72200
X2.83200 Y2.72300
X2.83400 Y2.72300
X2.83400 Y2.72400
X2.83500 Y2.72400
X2.83500 Y2.72500
X2.83700 Y2.72500
X2.83700 Y2.72600
X2.83800 Y2.72600
X2.83800 Y2.72700
X2.84000 Y2.72700
X2.84000 Y2.72800
X2.84100 Y2.72800
X2.84100 Y2.72900
X2.84300 Y2.72900
X2.84300 Y2.73000
X2.84500 Y2.73000
X2.84500 Y2.73100
X2.84600 Y2.73100
X2.84600 Y2.73200
X2.84800 Y2.73200
X2.84800 Y2.73300
X2.84900 Y2.73300
X2.84900 Y2.73400
X2.85100 Y2.73400
X2.85100 Y2.73500
X2.85200 Y2.73500
X2.85200 Y2.73600
X2.85400 Y2.73600
X2.85400 Y2.73700
X2.85600 Y2.73700
X2.85600 Y2.73800
X2.85700 Y2.73800
X2.85700 Y2.73900
X2.85900 Y2.73900
X2.85900 Y2.74000
X2.86000 Y2.74000
X2.86000 Y2.74100
X2.86200 Y2.74100
X2.86200 Y2.74200
X2.86300 Y2.74200
X2.86300 Y2.74300
X2.86500 Y2.74300
X2.86500 Y2.74400
X2.86600 Y2.74400
X2.86600 Y2.74500
X2.86800 Y2.74500
X2.86800 Y2.74600
X2.87000 Y2.74600
X2.87000 Y2.74700
X2.87100 Y2.74700
X2.87100 Y2.74800
X2.87300 Y2.74800
X2.87300 Y2.74900
X2.87400 Y2.74900
X2.87400 Y2.75000
X2.87600 Y2.75000
X2.87600 Y2.75100
X2.87700 Y2.75100
X2.87700 Y2.75200
X2.87800 Y2.75200
X2.87800 Y2.75300
X2.87900 Y2.75300
X2.87900 Y2.75400
X2.88000 Y2.75400
X2.88000 Y2.75600
X2.88100 Y2.75600
X2.88100 Y2.75800
X2.88200 Y2.75800
X2.88200 Y2.99500
X2.88100 Y2.99500
X2.88100 Y2.99700
X2.88000 Y2.99700
X2.88000 Y2.99900
X2.87900 Y2.99900
X2.87900 Y3.00000
X2.87800 Y3.00000
X2.87800 Y3.00100
X2.87700 Y3.00100
X2.87700 Y3.00200
X2.87600 Y3.00200
X2.87600 Y3.00300
X2.87500 Y3.00300
X2.87500 Y3.00400
X2.87400 Y3.00400
X2.87400 Y3.00500
X2.87300 Y3.00500
X2.87300 Y3.00600
X2.87200 Y3.00600
X2.87200 Y3.00700
X2.87100 Y3.00700
X2.87100 Y3.00800
X2.87000 Y3.00800
X2.87000 Y3.00900
X2.86900 Y3.00900
X2.86900 Y3.01000
X2.86800 Y3.01000
X2.86800 Y3.01100
X2.86700 Y3.01100
X2.86700 Y3.01200
X2.86600 Y3.01200
X2.86600 Y3.01300
X2.86500 Y3.01300
X2.86500 Y3.01400
X2.86400 Y3.01400
X2.86400 Y3.01500
X2.86300 Y3.01500
X2.86300 Y3.01600
X2.86200 Y3.01600
X2.86200 Y3.01700
X2.86100 Y3.01700
X2.86100 Y3.01800
X2.86000 Y3.01800
X2.86000 Y3.01900
X2.85900 Y3.01900
X2.85900 Y3.02000
X2.85800 Y3.02000
X2.85800 Y3.02100
X2.85700 Y3.02100
X2.85700 Y3.02200
X2.85600 Y3.02200
X2.85600 Y3.02300
X2.85500 Y3.02300
X2.85500 Y3.02400
X2.85400 Y3.02400
X2.85400 Y3.02500
X2.85300 Y3.02500
X2.85300 Y3.02600
X2.85200 Y3.02600
X2.85200 Y3.02700
X2.85100 Y3.02700
X2.85100 Y3.02800
X2.85000 Y3.02800
X2.85000 Y3.02900
X2.84900 Y3.02900
X2.84900 Y3.03000
X2.84800 Y3.03000
X2.84800 Y3.03100
X2.84700 Y3.03100
X2.84700 Y3.03200
X2.84600 Y3.03200
X2.84600 Y3.03300
X2.84500 Y3.03300
X2.84500 Y3.03400
X2.84400 Y3.03400
X2.84400 Y3.03500
X2.84300 Y3.03500
X2.84300 Y3.03600
X2.84200 Y3.03600
X2.84200 Y3.03700
X2.84100 Y3.03700
X2.84100 Y3.03800
X2.84000 Y3.03800
X2.84000 Y3.03900
X2.83900 Y3.03900
X2.83900 Y3.04000
X2.83800 Y3.04000
X2.83800 Y3.04100
X2.83700 Y3.04100
X2.83700 Y3.04200
X2.83600 Y3.04200
X2.83600 Y3.04300
X2.83500 Y3.04300
X2.83500 Y3.04400
X2.83400 Y3.04400
X2.83400 Y3.04500
X2.83300 Y3.04500
X2.83300 Y3.04600
X2.83200 Y3.04600
X2.83200 Y3.04700
X2.83100 Y3.04700
X2.83100 Y3.04800
X2.83000 Y3.04800
X2.83000 Y3.04900
X2.82900 Y3.04900
X2.82900 Y3.05000
X2.82800 Y3.05000
X2.82800 Y3.05100
X2.82700 Y3.05100
X2.82700 Y3.05200
X2.82600 Y3.05200
X2.82600 Y3.05300
X2.82500 Y3.05300
X2.82500 Y3.05400
X2.82400 Y3.05400
X2.82400 Y3.05500
X2.82300 Y3.05500
X2.82300 Y3.05600
X2.82200 Y3.05600
X2.82200 Y3.05700
X2.82100 Y3.05700
X2.82100 Y3.05800
X2.82000 Y3.05800
X2.82000 Y3.05900
X2.81900 Y3.05900
X2.81900 Y3.06000
X2.81800 Y3.06000
X2.81800 Y3.06100
X2.81700 Y3.06100
X2.81700 Y3.06200
X2.81600 Y3.06200
X2.81600 Y3.06300
X2.81500 Y3.06300
X2.81500 Y3.06400
X2.81400 Y3.06400
X2.81400 Y3.06500
X2.81300 Y3.06500
X2.81300 Y3.06600
X2.81100 Y3.06600
X2.81100 Y3.06700
X2.81000 Y3.06700
X2.81000 Y3.06800
X2.80900 Y3.06800
X2.80900 Y3.06900
X2.80800 Y3.06900
X2.80800 Y3.07000
X2.80700 Y3.07000
X2.80700 Y3.07100
X2.80600 Y3.07100
X2.80600 Y3.07200
X2.80500 Y3.07200
X2.80500 Y3.07300
X2.80400 Y3.07300
X2.80400 Y3.07400
X2.80300 Y3.07400
X2.80300 Y3.07500
X2.80200 Y3.07500
X2.80200 Y3.07600
X2.80100 Y3.07600
X2.80100 Y3.07700
X2.80000 Y3.07700
X2.80000 Y3.07800
X2.79900 Y3.07800
X2.79900 Y3.07900
X2.79800 Y3.07900
X2.79800 Y3.08000
X2.79700 Y3.08000
X2.79700 Y3.08100
X2.79600 Y3.08100
X2.79600 Y3.08200
X2.79400 Y3.08200
X2.79400 Y3.08300
X2.79300 Y3.08300
X2.79300 Y3.08400
X2.79200 Y3.08400
X2.79200 Y3.08500
X2.79100 Y3.08500
X2.79100 Y3.08600
X2.79000 Y3.08600
X2.79000 Y3.08700
X2.78900 Y3.08700
X2.78900 Y3.08800
X2.78800 Y3.08800
X2.78800 Y3.08900
X2.78700 Y3.08900
X2.78700 Y3.09000
X2.78600 Y3.09000
X2.78600 Y3.09100
X2.78500 Y3.09100
X2.78500 Y3.09200
X2.78400 Y3.09200
X2.78400 Y3.09300
X2.78300 Y3.09300
X2.78300 Y3.09400
X2.78200 Y3.09400
X2.78200 Y3.09500
X2.78100 Y3.09500
X2.78100 Y3.09600
X2.78000 Y3.09600
X2.78000 Y3.09700
X2.77900 Y3.09700
X2.77900 Y3.09800
X2.77700 Y3.09800
X2.77700 Y3.09900
X2.77600 Y3.09900
X2.77600 Y3.10000
X2.77400 Y3.10000
X2.77400 Y3.10100
X2.77500 Y3.10100
X2.77500 Y3.10200
X2.77600 Y3.10200
X2.77600 Y3.10300
X2.77700 Y3.10300
X2.77700 Y3.10400
X2.77800 Y3.10400
X2.77800 Y3.10500
X2.78000 Y3.10500
X2.78000 Y3.10600
X2.78100 Y3.10600
X2.78100 Y3.10700
X2.78200 Y3.10700
X2.78200 Y3.10800
X2.78300 Y3.10800
X2.78300 Y3.10900
X2.78400 Y3.10900
X2.78400 Y3.11000
X2.78500 Y3.11000
X2.78500 Y3.11100
X2.78600 Y3.11100
X2.78600 Y3.11200
X2.78700 Y3.11200
X2.78700 Y3.11300
X2.78800 Y3.11300
X2.78800 Y3.11400
X2.78900 Y3.11400
X2.78900 Y3.11500
X2.79000 Y3.11500
X2.79000 Y3.11600
X2.79100 Y3.11600
X2.79100 Y3.11700
X2.79300 Y3.11700
X2.79300 Y3.11800
X2.79400 Y3.11800
X2.79400 Y3.11900
X2.79500 Y3.11900
X2.79500 Y3.12000
X2.79600 Y3.12000
X2.79600 Y3.12100
X2.79700 Y3.12100
X2.79700 Y3.12200
X2.79800 Y3.12200
X2.79800 Y3.12300
X2.79900 Y3.12300
X2.79900 Y3.12400
X2.80000 Y3.12400
X2.80000 Y3.12500
X2.80100 Y3.12500
X2.80100 Y3.12600
X2.80200 Y3.12600
X2.80200 Y3.12700
X2.80300 Y3.12700
X2.80300 Y3.12800
X2.80500 Y3.12800
X2.80500 Y3.12900
X2.80600 Y3.12900
X2.80600 Y3.13000
X2.80700 Y3.13000
X2.80700 Y3.13100
X2.80800 Y3.13100
X2.80800 Y3.13200
X2.80900 Y3.13200
X2.80900 Y3.13300
X2.81000 Y3.13300
X2.81000 Y3.13400
X2.81100 Y3.13400
X2.81100 Y3.13500
X2.81200 Y3.13500
X2.81200 Y3.13600
X2.81300 Y3.13600
X2.81300 Y3.13700
X2.81400 Y3.13700
X2.81400 Y3.13800
X2.81500 Y3.13800
X2.81500 Y3.13900
X2.81700 Y3.13900
X2.81700 Y3.14000
X2.81800 Y3.14000
X2.81800 Y3.14100
X2.81900 Y3.14100
X2.81900 Y3.14200
X2.82000 Y3.14200
X2.82000 Y3.14300
X2.82100 Y3.14300
X2.82100 Y3.14400
X2.82200 Y3.14400
X2.82200 Y3.14500
X2.82300 Y3.14500
X2.82300 Y3.14600
X2.82400 Y3.14600
X2.82400 Y3.14700
X2.82500 Y3.14700
X2.82500 Y3.14800
X2.82600 Y3.14800
X2.82600 Y3.14900
X2.82700 Y3.14900
X2.82700 Y3.15000
X2.82800 Y3.15000
X2.82800 Y3.15100
X2.82900 Y3.15100
X2.82900 Y3.15200
X2.83000 Y3.15200
X2.83000 Y3.15400
X2.83100 Y3.15400
X2.83100 Y3.15600
X2.83200 Y3.15600
X2.83200 Y3.39400
X2.83100 Y3.39400
X2.83100 Y3.39600
X2.83000 Y3.39600
X2.83000 Y3.39800
X2.82900 Y3.39800
X2.82900 Y3.39900
X2.82800 Y3.39900
X2.82800 Y3.40000
X2.82700 Y3.40000
X2.82700 Y3.40100
X2.82600 Y3.40100
X2.82600 Y3.40200
X2.82500 Y3.40200
X2.82500 Y3.40300
X2.82400 Y3.40300
X2.82400 Y3.40400
X2.82300 Y3.40400
X2.82300 Y3.40500
X2.82200 Y3.40500
X2.82200 Y3.40600
X2.82100 Y3.40600
X2.82100 Y3.40700
X2.82000 Y3.40700
X2.82000 Y3.40800
X2.81900 Y3.40800
X2.81900 Y3.40900
X2.81800 Y3.40900
X2.81800 Y3.41000
X2.81700 Y3.41000
X2.81700 Y3.41100
X2.81600 Y3.41100
X2.81600 Y3.41200
X2.81500 Y3.41200
X2.81500 Y3.41300
X2.81300 Y3.41300
X2.81300 Y3.41400
X2.81200 Y3.41400
X2.81200 Y3.41500
X2.81100 Y3.41500
X2.81100 Y3.41600
X2.81000 Y3.41600
X2.81000 Y3.41700
X2.80900 Y3.41700
X2.80900 Y3.41800
X2.80800 Y3.41800
X2.80800 Y3.41900
X2.80700 Y3.41900
X2.80700 Y3.42000
X2.80600 Y3.42000
X2.80600 Y3.42100
X2.80500 Y3.42100
X2.80500 Y3.42200
X2.80400 Y3.42200
X2.80400 Y3.42300
X2.80300 Y3.42300
X2.80300 Y3.42400
X2.80200 Y3.42400
X2.80200 Y3.42500
X2.80100 Y3.42500
X2.80100 Y3.42600
X2.79900 Y3.42600
X2.79900 Y3.42700
X2.79800 Y3.42700
X2.79800 Y3.42800
X2.79700 Y3.42800
X2.79700 Y3.42900
X2.79600 Y3.42900
X2.79600 Y3.43000
X2.79500 Y3.43000
X2.79500 Y3.43100
X2.79400 Y3.43100
X2.79400 Y3.43200
X2.79300 Y3.43200
X2.79300 Y3.43300
X2.79200 Y3.43300
X2.79200 Y3.43400
X2.79100 Y3.43400
X2.79100 Y3.43500
X2.79000 Y3.43500
X2.79000 Y3.43600
X2.78900 Y3.43600
X2.78900 Y3.43700
X2.78800 Y3.43700
X2.78800 Y3.43800
X2.78700 Y3.43800
X2.78700 Y3.43900
X2.78500 Y3.43900
X2.78500 Y3.44000
X2.78400 Y3.44000
X2.78400 Y3.44100
X2.78300 Y3.44100
X2.78300 Y3.44200
X2.78200 Y3.44200
X2.78200 Y3.44300
X2.78100 Y3.44300
X2.78100 Y3.44400
X2.78000 Y3.44400
X2.78000 Y3.44500
X2.77900 Y3.44500
X2.77900 Y3.44600
X2.77800 Y3.44600
X2.77800 Y3.44700
X2.77700 Y3.44700
X2.77700 Y3.44800
X2.77600 Y3.44800
X2.77600 Y3.44900
X2.77500 Y3.44900
X2.77500 Y3.45000
X2.77400 Y3.45000
X2.77400 Y3.45100
X2.77300 Y3.45100
X2.77300 Y3.45200
X2.77200 Y3.45200
X2.77200 Y3.45300
X2.77000 Y3.45300
X2.77000 Y3.45400
X2.76900 Y3.45400
X2.76900 Y3.45500
X2.76800 Y3.45500
X2.76800 Y3.45600
X2.76700 Y3.45600
X2.76700 Y3.45700
X2.76600 Y3.45700
X2.76600 Y3.45800
X2.76500 Y3.45800
X2.76500 Y3.45900
X2.76400 Y3.45900
X2.76400 Y3.46000
X2.76300 Y3.46000
X2.76300 Y3.46100
X2.76200 Y3.46100
X2.76200 Y3.46200
X2.76100 Y3.46200
X2.76100 Y3.46300
X2.76000 Y3.46300
X2.76000 Y3.46400
X2.75900 Y3.46400
X2.75900 Y3.46500
X2.75800 Y3.46500
X2.75800 Y3.46600
X2.75600 Y3.46600
X2.75600 Y3.46700
X2.75500 Y3.46700
X2.75500 Y3.46800
X2.75400 Y3.46800
X2.75400 Y3.46900
X2.75300 Y3.46900
X2.75300 Y3.47000
X2.75200 Y3.47000
X2.75200 Y3.47100
X2.75100 Y3.47100
X2.75100 Y3.47200
X2.75000 Y3.47200
X2.75000 Y3.50000
X2.74900 Y3.50000
X2.74900 Y3.50400
X2.74800 Y3.50400
X2.74800 Y3.50700
X2.74700 Y3.50700
X2.74700 Y3.50900
X2.74600 Y3.50900
X2.74600 Y3.51100
X2.74500 Y3.51100
X2.74500 Y3.51200
X2.74400 Y3.51200
X2.74400 Y3.51400
X2.74300 Y3.51400
X2.74300 Y3.51500
X2.74200 Y3.51500
X2.74200 Y3.51600
X2.74100 Y3.51600
X2.74100 Y3.51700
X2.74000 Y3.51700
X2.74000 Y3.51800
X2.73900 Y3.51800
X2.73900 Y3.51900
X2.73800 Y3.51900
X2.73800 Y3.52000
X2.73600 Y3.52000
X2.73600 Y3.52100
X2.73500 Y3.52100
X2.73500 Y3.52200
X2.73300 Y3.52200
X2.73300 Y3.52300
X2.73100 Y3.52300
X2.73100 Y3.52400
X2.73000 Y3.52400
X2.73000 Y3.52500
X2.72800 Y3.52500
X2.72800 Y3.52600
X2.72500 Y3.52600
X2.72500 Y3.52700
X2.71900 Y3.52700
X2.71900 Y3.52800
X2.67600 Y3.52800
X2.67600 Y3.52700
X2.67000 Y3.52700
X2.67000 Y3.52600
X2.66700 Y3.52600
X2.66700 Y3.52500
X2.66500 Y3.52500
X2.66500 Y3.52400
X2.66400 Y3.52400
X2.66400 Y3.52300
X2.66200 Y3.52300
X2.66200 Y3.52200
X2.66000 Y3.52200
X2.66000 Y3.52100
X2.65900 Y3.52100
X2.65900 Y3.52000
X2.65700 Y3.52000
X2.65700 Y3.51900
X2.65600 Y3.51900
X2.65600 Y3.51800
X2.65500 Y3.51800
X2.65500 Y3.51700
X2.65400 Y3.51700
X2.65400 Y3.51600
X2.65300 Y3.51600
X2.65300 Y3.51500
X2.65200 Y3.51500
X2.65200 Y3.51400
X2.65100 Y3.51400
X2.65100 Y3.51200
G04 P0 ( dwell for no time -- G64 should not smooth over this point )
G00 Z0.08000 ( retract )

G00 X2.45700 Y3.51200 ( rapid move to begin. )
G01 Z-0.00800 F6.00000 ( plunge. )
G04 P0 ( dwell for no time -- G64 should not smooth over this point )
X2.45700 Y3.51200
X2.45600 Y3.51200
X2.45600 Y3.51000
X2.45500 Y3.51000
X2.45500 Y3.50900
X2.45400 Y3.50900
X2.45400 Y3.50700
X2.45300 Y3.50700
X2.45300 Y3.50300
X2.45200 Y3.50300
X2.45200 Y3.50000
X2.45100 Y3.50000
X2.45100 Y3.45100
X2.45200 Y3.45100
X2.45200 Y3.44800
X2.45300 Y3.44800
X2.45300 Y3.44400
X2.45400 Y3.44400
X2.45400 Y3.44200
X2.45500 Y3.44200
X2.45500 Y3.44100
X2.45600 Y3.44100
X2.45600 Y3.43900
X2.45700 Y3.43900
X2.45700 Y3.43700
X2.45800 Y3.43700
X2.45800 Y3.43600
X2.45900 Y3.43600
X2.45900 Y3.43500
X2.46000 Y3.43500
X2.46000 Y3.43400
X2.46100 Y3.43400
X2.46100 Y3.43300
X2.46200 Y3.43300
X2.46200 Y3.43200
X2.46300 Y3.43200
X2.46300 Y3.43100
X2.46500 Y3.43100
X2.46500 Y3.43000
X2.46600 Y3.43000
X2.46600 Y3.42900
X2.46800 Y3.42900
X2.46800 Y3.42800
X2.47000 Y3.42800
X2.47000 Y3.42700
X2.47100 Y3.42700
X2.47100 Y3.42600
X2.47300 Y3.42600
X2.47300 Y3.42500
X2.47600 Y3.42500
X2.47600 Y3.42400
X2.48200 Y3.42400
X2.48200 Y3.42300
X2.52500 Y3.42300
X2.52500 Y3.42400
X2.53100 Y3.42400
X2.53100 Y3.42500
X2.53400 Y3.42500
X2.53400 Y3.42600
X2.53600 Y3.42600
X2.53600 Y3.42700
X2.53700 Y3.42700
X2.53700 Y3.42800
X2.53900 Y3.42800
X2.53900 Y3.42900
X2.54100 Y3.42900
X2.54100 Y3.43000
X2.54200 Y3.43000
X2.54200 Y3.43100
X2.54400 Y3.43100
X2.54400 Y3.43200
X2.54500 Y3.43200
X2.54500 Y3.43300
X2.54600 Y3.43300
X2.54600 Y3.43400
X2.54700 Y3.43400
X2.54700 Y3.43500
X2.54800 Y3.43500
X2.54800 Y3.43600
X2.54900 Y3.43600
X2.54900 Y3.43700
X2.55000 Y3.43700
X2.55000 Y3.43900
X2.55100 Y3.43900
X2.55100 Y3.44000
X2.55200 Y3.44000
X2.55200 Y3.44200
X2.55300 Y3.44200
X2.55300 Y3.44400
X2.55400 Y3.44400
X2.55400 Y3.44700
X2.55500 Y3.44700
X2.55500 Y3.45100
X2.55600 Y3.45100
X2.55600 Y3.50000
X2.55500 Y3.50000
X2.55500 Y3.50400
X2.55400 Y3.50400
X2.55400 Y3.50700
X2.55300 Y3.50700
X2.55300 Y3.50900
X2.55200 Y3.50900
X2.55200 Y3.51100
X2.55100 Y3.51100
X2.55100 Y3.51200
X2.55000 Y3.51200
X2.55000 Y3.51400
X2.54900 Y3.51400
X2.54900 Y3.51500
X2.54800 Y3.51500
X2.54800 Y3.51600
X2.54700 Y3.51600
X2.54700 Y3.51700
X2.54600 Y3.51700
X2.54600 Y3.51800
X2.54500 Y3.51800
X2.54500 Y3.51900
X2.54400 Y3.51900
X2.54400 Y3.52000
X2.54200 Y3.52000
X2.54200 Y3.52100
X2.54100 Y3.52100
X2.54100 Y3.52200
X2.53900 Y3.52200
X2.53900 Y3.52300
X2.53700 Y3.52300
X2.53700 Y3.52400
X2.53600 Y3.52400
X2.53600 Y3.52500
X2.53400 Y3.52500
X2.53400 Y3.52600
X2.53100 Y3.52600
X2.53100 Y3.52700
X2.52500 Y3.52700
X2.52500 Y3.52800
X2.48200 Y3.52800
X2.48200 Y3.52700
X2.47600 Y3.52700
X2.47600 Y3.52600
X2.47300 Y3.52600
X2.47300 Y3.52500
X2.47100 Y3.52500
X2.47100 Y3.52400
X2.47000 Y3.52400
X2.47000 Y3.52300
X2.46800 Y3.52300
X2.46800 Y3.52200
X2.46600 Y3.52200
X2.46600 Y3.52100
X2.46500 Y3.52100
X2.46500 Y3.52000
X2.46300 Y3.52000
X2.46300 Y3.51900
X2.46200 Y3.51900
X2.46200 Y3.51800
X2.46100 Y3.51800
X2.46100 Y3.51700
X2.46000 Y3.51700
X2.46000 Y3.51600
X2.45900 Y3.51600
X2.45900 Y3.51500
X2.45800 Y3.51500
X2.45800 Y3.51400
X2.45700 Y3.51400
X2.45700 Y3.51200
G04 P0 ( dwell for no time -- G64 should not smooth over this point )
G00 Z0.08000 ( retract )

G00 X2.20100 Y3.51200 ( rapid move to begin. )
G01 Z-0.00800 F6.00000 ( plunge. )
G04 P0 ( dwell for no time -- G64 should not smooth over this point )
X2.20100 Y3.51200
X2.20000 Y3.51200
X2.20000 Y3.51000
X2.19900 Y3.51000
X2.19900 Y3.50900
X2.19800 Y3.50900
X2.19800 Y3.50700
X2.19700 Y3.50700
X2.19700 Y3.50300
X2.19600 Y3.50300
X2.19600 Y3.50000
X2.19500 Y3.50000
X2.19500 Y3.45100
X2.19600 Y3.45100
X2.19600 Y3.44800
X2.19700 Y3.44800
X2.19700 Y3.44400
X2.19800 Y3.44400
X2.19800 Y3.44200
X2.19900 Y3.44200
X2.19900 Y3.44100
X2.20000 Y3.44100
X2.20000 Y3.43900
X2.20100 Y3.43900
X2.20100 Y3.43700
X2.20200 Y3.43700
X2.20200 Y3.43600
X2.20300 Y3.43600
X2.20300 Y3.43500
X2.20400 Y3.43500
X2.20400 Y3.43400
X2.20500 Y3.43400
X2.20500 Y3.43300
X2.20600 Y3.43300
X2.20600 Y3.43200
X2.20700 Y3.43200
X2.20700 Y3.43100
X2.20900 Y3.43100
X2.20900 Y3.43000
X2.21000 Y3.43000
X2.21000 Y3.42900
X2.21200 Y3.42900
X2.21200 Y3.42800
X2.21400 Y3.42800
X2.21400 Y3.42700
X2.21500 Y3.42700
X2.21500 Y3.42600
X2.21700 Y3.42600
X2.21700 Y3.42500
X2.22000 Y3.42500
X2.22000 Y3.42400
X2.22600 Y3.42400
X2.22600 Y3.42300
X2.25400 Y3.42300
X2.25400 Y3.42200
X2.25500 Y3.42200
X2.25500 Y3.42100
X2.25600 Y3.42100
X2.25600 Y3.42000
X2.25700 Y3.42000
X2.25700 Y3.41900
X2.25800 Y3.41900
X2.25800 Y3.41800
X2.25900 Y3.41800
X2.25900 Y3.41700
X2.26000 Y3.41700
X2.26000 Y3.41600
X2.26200 Y3.41600
X2.26200 Y3.41500
X2.26300 Y3.41500
X2.26300 Y3.41400
X2.26400 Y3.41400
X2.26400 Y3.41300
X2.26500 Y3.41300
X2.26500 Y3.41200
X2.26600 Y3.41200
X2.26600 Y3.41100
X2.26700 Y3.41100
X2.26700 Y3.41000
X2.26800 Y3.41000
X2.26800 Y3.40900
X2.26900 Y3.40900
X2.26900 Y3.40800
X2.27000 Y3.40800
X2.27000 Y3.40700
X2.27100 Y3.40700
X2.27100 Y3.40600
X2.27200 Y3.40600
X2.27200 Y3.40500
X2.27300 Y3.40500
X2.27300 Y3.40400
X2.27400 Y3.40400
X2.27400 Y3.40300
X2.27500 Y3.40300
X2.27500 Y3.40200
X2.27600 Y3.40200
X2.27600 Y3.40100
X2.27700 Y3.40100
X2.27700 Y3.40000
X2.27900 Y3.40000
X2.27900 Y3.39900
X2.28000 Y3.39900
X2.28000 Y3.39800
X2.28100 Y3.39800
X2.28100 Y3.39700
X2.28200 Y3.39700
X2.28200 Y3.39600
X2.28300 Y3.39600
X2.28300 Y3.39500
X2.28400 Y3.39500
X2.28400 Y3.39400
X2.28500 Y3.39400
X2.28500 Y3.39300
X2.28600 Y3.39300
X2.28600 Y3.39200
X2.28700 Y3.39200
X2.28700 Y3.39100
X2.28800 Y3.39100
X2.28800 Y3.39000
X2.28900 Y3.39000
X2.28900 Y3.38900
X2.29000 Y3.38900
X2.29000 Y3.38800
X2.29100 Y3.38800
X2.29100 Y3.38700
X2.29200 Y3.38700
X2.29200 Y3.38600
X2.29300 Y3.38600
X2.29300 Y3.38500
X2.29400 Y3.38500
X2.29400 Y3.38400
X2.29600 Y3.38400
X2.29600 Y3.38300
X2.29700 Y3.38300
X2.29700 Y3.38200
X2.29800 Y3.38200
X2.29800 Y3.38100
X2.29900 Y3.38100
X2.29900 Y3.38000
X2.30000 Y3.38000
X2.30000 Y3.37900
X2.30100 Y3.37900
X2.30100 Y3.37800
X2.30200 Y3.37800
X2.30200 Y3.37700
X2.30300 Y3.37700
X2.30300 Y3.37600
X2.30400 Y3.37600
X2.30400 Y3.37500
X2.30500 Y3.37500
X2.30500 Y3.37400
X2.30600 Y3.37400
X2.30600 Y3.37300
X2.30700 Y3.37300
X2.30700 Y3.37200
X2.30800 Y3.37200
X2.30800 Y3.37100
X2.30900 Y3.37100
X2.30900 Y3.37000
X2.31000 Y3.37000
X2.31000 Y3.36900
X2.31100 Y3.36900
X2.31100 Y3.36800
X2.31300 Y3.36800
X2.31300 Y3.36700
X2.31400 Y3.36700
X2.31400 Y3.36600
X2.31500 Y3.36600
X2.31500 Y3.36500
X2.31600 Y3.36500
X2.31600 Y3.36400
X2.31700 Y3.36400
X2.31700 Y3.36300
X2.31800 Y3.36300
X2.31800 Y3.36200
X2.31900 Y3.36200
X2.31900 Y3.36100
X2.32000 Y3.36100
X2.32000 Y3.36000
X2.32100 Y3.36000
X2.32100 Y3.35900
X2.32200 Y3.35900
X2.32200 Y3.35800
X2.32300 Y3.35800
X2.32300 Y3.35700
X2.32400 Y3.35700
X2.32400 Y3.35600
X2.32500 Y3.35600
X2.32500 Y3.35500
X2.32600 Y3.35500
X2.32600 Y3.24300
X2.32500 Y3.24300
X2.32500 Y3.24200
X2.32400 Y3.24200
X2.32400 Y3.24000
X2.32300 Y3.24000
X2.32300 Y3.23900
X2.32200 Y3.23900
X2.32200 Y3.23700
X2.32100 Y3.23700
X2.32100 Y3.23600
X2.32000 Y3.23600
X2.32000 Y3.23500
X2.31900 Y3.23500
X2.31900 Y3.23300
X2.31800 Y3.23300
X2.31800 Y3.23200
X2.31700 Y3.23200
X2.31700 Y3.23000
X2.31600 Y3.23000
X2.31600 Y3.22900
X2.31500 Y3.22900
X2.31500 Y3.22800
X2.31400 Y3.22800
X2.31400 Y3.22600
X2.31300 Y3.22600
X2.31300 Y3.22500
X2.31200 Y3.22500
X2.31200 Y3.22300
X2.31100 Y3.22300
X2.31100 Y3.22200
X2.31000 Y3.22200
X2.31000 Y3.22000
X2.30900 Y3.22000
X2.30900 Y3.21900
X2.30800 Y3.21900
X2.30800 Y3.21800
X2.30700 Y3.21800
X2.30700 Y3.21600
X2.30600 Y3.21600
X2.30600 Y3.21500
X2.30500 Y3.21500
X2.30500 Y3.21300
X2.30400 Y3.21300
X2.30400 Y3.21200
X2.30300 Y3.21200
X2.30300 Y3.21100
X2.30200 Y3.21100
X2.30200 Y3.20900
X2.30100 Y3.20900
X2.30100 Y3.20800
X2.30000 Y3.20800
X2.30000 Y3.20600
X2.29900 Y3.20600
X2.29900 Y3.20500
X2.29800 Y3.20500
X2.29800 Y3.20300
X2.29700 Y3.20300
X2.29700 Y3.20200
X2.29600 Y3.20200
X2.29600 Y3.20100
X2.29500 Y3.20100
X2.29500 Y3.19900
X2.29400 Y3.19900
X2.29400 Y3.19800
X2.29300 Y3.19800
X2.29300 Y3.19600
X2.29200 Y3.19600
X2.29200 Y3.19500
X2.29100 Y3.19500
X2.29100 Y3.19400
X2.29000 Y3.19400
X2.29000 Y3.19200
X2.28900 Y3.19200
X2.28900 Y3.19100
X2.28800 Y3.19100
X2.28800 Y3.18900
X2.28700 Y3.18900
X2.28700 Y3.18800
X2.28600 Y3.18800
X2.28600 Y3.18600
X2.28500 Y3.18600
X2.28500 Y3.18500
X2.28400 Y3.18500
X2.28400 Y3.18400
X2.28300 Y3.18400
X2.28300 Y3.18200
X2.28200 Y3.18200
X2.28200 Y3.18100
X2.28100 Y3.18100
X2.28100 Y3.17900
X2.28000 Y3.17900
X2.28000 Y3.17800
X2.27900 Y3.17800
X2.27900 Y3.17700
X2.27800 Y3.17700
X2.27800 Y3.17500
X2.27700 Y3.17500
X2.27700 Y3.17400
X2.27600 Y3.17400
X2.27600 Y3.17200
X2.27500 Y3.17200
X2.27500 Y3.17100
X2.27400 Y3.17100
X2.27400 Y3.16900
X2.27300 Y3.16900
X2.27300 Y3.16800
X2.27200 Y3.16800
X2.27200 Y3.16700
X2.27100 Y3.16700
X2.27100 Y3.16500
X2.27000 Y3.16500
X2.27000 Y3.16400
X2.26900 Y3.16400
X2.26900 Y3.16200
X2.26800 Y3.16200
X2.26800 Y3.16100
X2.26700 Y3.16100
X2.26700 Y3.16000
X2.26600 Y3.16000
X2.26600 Y3.15800
X2.26500 Y3.15800
X2.26500 Y3.15700
X2.26400 Y3.15700
X2.26400 Y3.15500
X2.26300 Y3.15500
X2.26300 Y3.15400
X2.26200 Y3.15400
X2.26200 Y3.15200
X2.26100 Y3.15200
X2.26100 Y3.15100
X2.26000 Y3.15100
X2.26000 Y3.15000
X2.25900 Y3.15000
X2.25900 Y3.14800
X2.25800 Y3.14800
X2.25800 Y3.14700
X2.25700 Y3.14700
X2.25700 Y3.14500
X2.25600 Y3.14500
X2.25600 Y3.14400
X2.25500 Y3.14400
X2.25500 Y3.14300
X2.25400 Y3.14300
X2.25400 Y3.14100
X2.25300 Y3.14100
X2.25300 Y3.14000
X2.25200 Y3.14000
X2.25200 Y3.13800
X2.25100 Y3.13800
X2.25100 Y3.13700
X2.25000 Y3.13700
X2.25000 Y3.13500
X2.24900 Y3.13500
X2.24900 Y3.13400
X2.24800 Y3.13400
X2.24800 Y3.13300
X2.24700 Y3.13300
X2.24700 Y3.13100
X2.24600 Y3.13100
X2.24600 Y3.13000
X2.24500 Y3.13000
X2.24500 Y3.12800
X2.22600 Y3.12800
X2.22600 Y3.12700
X2.22000 Y3.12700
X2.22000 Y3.12600
X2.21700 Y3.12600
X2.21700 Y3.12500
X2.21500 Y3.12500
X2.21500 Y3.12400
X2.21400 Y3.12400
X2.21400 Y3.12300
X2.21200 Y3.12300
X2.21200 Y3.12200
X2.21000 Y3.12200
X2.21000 Y3.12100
X2.20900 Y3.12100
X2.20900 Y3.12000
X2.20700 Y3.12000
X2.20700 Y3.11900
X2.20600 Y3.11900
X2.20600 Y3.11800
X2.20500 Y3.11800
X2.20500 Y3.11700
X2.20400 Y3.11700
X2.20400 Y3.11600
X2.20300 Y3.11600
X2.20300 Y3.11500
X2.20200 Y3.11500
X2.20200 Y3.11400
X2.20100 Y3.11400
X2.20100 Y3.11200
X2.20000 Y3.11200
X2.20000 Y3.11000
X2.19900 Y3.11000
X2.19900 Y3.10900
X2.19800 Y3.10900
X2.19800 Y3.10700
X2.19700 Y3.10700
X2.19700 Y3.10300
X2.19600 Y3.10300
X2.19600 Y3.10000
X2.19500 Y3.10000
X2.19500 Y3.05100
X2.19600 Y3.05100
X2.19600 Y3.04800
X2.19700 Y3.04800
X2.19700 Y3.04400
X2.19800 Y3.04400
X2.19800 Y3.04200
X2.19900 Y3.04200
X2.19900 Y3.04100
X2.20000 Y3.04100
X2.20000 Y3.03900
X2.20100 Y3.03900
X2.20100 Y3.03700
X2.20200 Y3.03700
X2.20200 Y3.03600
X2.20300 Y3.03600
X2.20300 Y3.03500
X2.20400 Y3.03500
X2.20400 Y3.03400
X2.20500 Y3.03400
X2.20500 Y3.03300
X2.20600 Y3.03300
X2.20600 Y3.03200
X2.20700 Y3.03200
X2.20700 Y3.03100
X2.20900 Y3.03100
X2.20900 Y3.03000
X2.21000 Y3.03000
X2.21000 Y3.02900
X2.21200 Y3.02900
X2.21200 Y3.02800
X2.21400 Y3.02800
X2.21400 Y3.02700
X2.21500 Y3.02700
X2.21500 Y3.02600
X2.21700 Y3.02600
X2.21700 Y3.02500
X2.22000 Y3.02500
X2.22000 Y3.02400
X2.22600 Y3.02400
X2.22600 Y3.02300
X2.26900 Y3.02300
X2.26900 Y3.02400
X2.27500 Y3.02400
X2.27500 Y3.02500
X2.27800 Y3.02500
X2.27800 Y3.02500
X2.28000 Y3.02500
X2.28000 Y3.02400
X2.28200 Y3.02400
X2.28200 Y3.02300
X2.28500 Y3.02300
X2.28500 Y3.02200
X2.28700 Y3.02200
X2.28700 Y3.02100
X2.28900 Y3.02100
X2.28900 Y3.02000
X2.29100 Y3.02000
X2.29100 Y3.01900
X2.29300 Y3.01900
X2.29300 Y3.01800
X2.29500 Y3.01800
X2.29500 Y3.01700
X2.29800 Y3.01700
X2.29800 Y3.01600
X2.30000 Y3.01600
X2.30000 Y3.01500
X2.30200 Y3.01500
X2.30200 Y3.01400
X2.30400 Y3.01400
X2.30400 Y3.01300
X2.30600 Y3.01300
X2.30600 Y3.01200
X2.30800 Y3.01200
X2.30800 Y3.01100
X2.31000 Y3.01100
X2.31000 Y3.01000
X2.31300 Y3.01000
X2.31300 Y3.00900
X2.31500 Y3.00900
X2.31500 Y3.00800
X2.31700 Y3.00800
X2.31700 Y3.00700
X2.31900 Y3.00700
X2.31900 Y3.00600
X2.32100 Y3.00600
X2.32100 Y3.00500
X2.32300 Y3.00500
X2.32300 Y3.00400
X2.32600 Y3.00400
X2.32600 Y2.74900
X2.32400 Y2.74900
X2.32400 Y2.74800
X2.32200 Y2.74800
X2.32200 Y2.74700
X2.32000 Y2.74700
X2.32000 Y2.74600
X2.31800 Y2.74600
X2.31800 Y2.74500
X2.31600 Y2.74500
X2.31600 Y2.74400
X2.31400 Y2.74400
X2.31400 Y2.74300
X2.31200 Y2.74300
X2.31200 Y2.74200
X2.31000 Y2.74200
X2.31000 Y2.74100
X2.30800 Y2.74100
X2.30800 Y2.74000
X2.30600 Y2.74000
X2.30600 Y2.73900
X2.30300 Y2.73900
X2.30300 Y2.73800
X2.30100 Y2.73800
X2.30100 Y2.73700
X2.29900 Y2.73700
X2.29900 Y2.73600
X2.29700 Y2.73600
X2.29700 Y2.73500
X2.29500 Y2.73500
X2.29500 Y2.73400
X2.29300 Y2.73400
X2.29300 Y2.73300
X2.29100 Y2.73300
X2.29100 Y2.73200
X2.28900 Y2.73200
X2.28900 Y2.73100
X2.28700 Y2.73100
X2.28700 Y2.73000
X2.28500 Y2.73000
X2.28500 Y2.72900
X2.28300 Y2.72900
X2.28300 Y2.72800
X2.28100 Y2.72800
X2.28100 Y2.72700
X2.27900 Y2.72700
X2.27900 Y2.72600
X2.27500 Y2.72600
X2.27500 Y2.72700
X2.26900 Y2.72700
X2.26900 Y2.72800
X2.22600 Y2.72800
X2.22600 Y2.72700
X2.22000 Y2.72700
X2.22000 Y2.72600
X2.21700 Y2.72600
X2.21700 Y2.72500
X2.21500 Y2.72500
X2.21500 Y2.72400
X2.21400 Y2.72400
X2.21400 Y2.72300
X2.21200 Y2.72300
X2.21200 Y2.72200
X2.21000 Y2.72200
X2.21000 Y2.72100
X2.20900 Y2.72100
X2.20900 Y2.72000
X2.20700 Y2.72000
X2.20700 Y2.71900
X2.20600 Y2.71900
X2.20600 Y2.71800
X2.20500 Y2.71800
X2.20500 Y2.71700
X2.20400 Y2.71700
X2.20400 Y2.71600
X2.20300 Y2.71600
X2.20300 Y2.71500
X2.20200 Y2.71500
X2.20200 Y2.71400
X2.20100 Y2.71400
X2.20100 Y2.71200
X2.20000 Y2.71200
X2.20000 Y2.71000
X2.19900 Y2.71000
X2.19900 Y2.70900
X2.19800 Y2.70900
X2.19800 Y2.70700
X2.19700 Y2.70700
X2.19700 Y2.70300
X2.19600 Y2.70300
X2.19600 Y2.70000
X2.19500 Y2.70000
X2.19500 Y2.65100
X2.19600 Y2.65100
X2.19600 Y2.64800
X2.19700 Y2.64800
X2.19700 Y2.64400
X2.19800 Y2.64400
X2.19800 Y2.64200
X2.19900 Y2.64200
X2.19900 Y2.64100
X2.20000 Y2.64100
X2.20000 Y2.63900
X2.20100 Y2.63900
X2.20100 Y2.63700
X2.20200 Y2.63700
X2.20200 Y2.63600
X2.20300 Y2.63600
X2.20300 Y2.63500
X2.20400 Y2.63500
X2.20400 Y2.63400
X2.20500 Y2.63400
X2.20500 Y2.63300
X2.20600 Y2.63300
X2.20600 Y2.63200
X2.20700 Y2.63200
X2.20700 Y2.63100
X2.20900 Y2.63100
X2.20900 Y2.63000
X2.21000 Y2.63000
X2.21000 Y2.62900
X2.21200 Y2.62900
X2.21200 Y2.62800
X2.21400 Y2.62800
X2.21400 Y2.62700
X2.21500 Y2.62700
X2.21500 Y2.62600
X2.21700 Y2.62600
X2.21700 Y2.62500
X2.22000 Y2.62500
X2.22000 Y2.62400
X2.22600 Y2.62400
X2.22600 Y2.62300
X2.26900 Y2.62300
X2.26900 Y2.62400
X2.27500 Y2.62400
X2.27500 Y2.62500
X2.28000 Y2.62500
X2.28000 Y2.62400
X2.28200 Y2.62400
X2.28200 Y2.62300
X2.28400 Y2.62300
X2.28400 Y2.62200
X2.28600 Y2.62200
X2.28600 Y2.62100
X2.28800 Y2.62100
X2.28800 Y2.62000
X2.29000 Y2.62000
X2.29000 Y2.61900
X2.29200 Y2.61900
X2.29200 Y2.61800
X2.29400 Y2.61800
X2.29400 Y2.61700
X2.29600 Y2.61700
X2.29600 Y2.61600
X2.29800 Y2.61600
X2.29800 Y2.61500
X2.30100 Y2.61500
X2.30100 Y2.61400
X2.30300 Y2.61400
X2.30300 Y2.61300
X2.30500 Y2.61300
X2.30500 Y2.61200
X2.30700 Y2.61200
X2.30700 Y2.61100
X2.30900 Y2.61100
X2.30900 Y2.61000
X2.31100 Y2.61000
X2.31100 Y2.60900
X2.31300 Y2.60900
X2.31300 Y2.60800
X2.31500 Y2.60800
X2.31500 Y2.60700
X2.31700 Y2.60700
X2.31700 Y2.60600
X2.32000 Y2.60600
X2.32000 Y2.60500
X2.32200 Y2.60500
X2.32200 Y2.60400
X2.32400 Y2.60400
X2.32400 Y2.60300
X2.32600 Y2.60300
X2.32600 Y2.39600
X2.32500 Y2.39600
X2.32500 Y2.39500
X2.32400 Y2.39500
X2.32400 Y2.39400
X2.32300 Y2.39400
X2.32300 Y2.39300
X2.32200 Y2.39300
X2.32200 Y2.39200
X2.32100 Y2.39200
X2.32100 Y2.39100
X2.32000 Y2.39100
X2.32000 Y2.39000
X2.31900 Y2.39000
X2.31900 Y2.38900
X2.31800 Y2.38900
X2.31800 Y2.38800
X2.31700 Y2.38800
X2.31700 Y2.38700
X2.31600 Y2.38700
X2.31600 Y2.38600
X2.31500 Y2.38600
X2.31500 Y2.38500
X2.31400 Y2.38500
X2.31400 Y2.38400
X2.31300 Y2.38400
X2.31300 Y2.38300
X2.31100 Y2.38300
X2.31100 Y2.38200
X2.31000 Y2.38200
X2.31000 Y2.38100
X2.30900 Y2.38100
X2.30900 Y2.38000
X2.30800 Y2.38000
X2.30800 Y2.37900
X2.30700 Y2.37900
X2.30700 Y2.37800
X2.30600 Y2.37800
X2.30600 Y2.37700
X2.30500 Y2.37700
X2.30500 Y2.37600
X2.30400 Y2.37600
X2.30400 Y2.37500
X2.30300 Y2.37500
X2.30300 Y2.37400
X2.30200 Y2.37400
X2.30200 Y2.37300
X2.30100 Y2.37300
X2.30100 Y2.37200
X2.30000 Y2.37200
X2.30000 Y2.37100
X2.29900 Y2.37100
X2.29900 Y2.37000
X2.29800 Y2.37000
X2.29800 Y2.36900
X2.29700 Y2.36900
X2.29700 Y2.36800
X2.29600 Y2.36800
X2.29600 Y2.36700
X2.29400 Y2.36700
X2.29400 Y2.36600
X2.29300 Y2.36600
X2.29300 Y2.36500
X2.29200 Y2.36500
X2.29200 Y2.36400
X2.29100 Y2.36400
X2.29100 Y2.36300
X2.29000 Y2.36300
X2.29000 Y2.36200
X2.28900 Y2.36200
X2.28900 Y2.36100
X2.28800 Y2.36100
X2.28800 Y2.36000
X2.28700 Y2.36000
X2.28700 Y2.35900
X2.28600 Y2.35900
X2.28600 Y2.35800
X2.28500 Y2.35800
X2.28500 Y2.35700
X2.28400 Y2.35700
X2.28400 Y2.35600
X2.28300 Y2.35600
X2.28300 Y2.35500
X2.28200 Y2.35500
X2.28200 Y2.35400
X2.28100 Y2.35400
X2.28100 Y2.35300
X2.28000 Y2.35300
X2.28000 Y2.35200
X2.27900 Y2.35200
X2.27900 Y2.35100
X2.27700 Y2.35100
X2.27700 Y2.35000
X2.27600 Y2.35000
X2.27600 Y2.34900
X2.27500 Y2.34900
X2.27500 Y2.34800
X2.27400 Y2.34800
X2.27400 Y2.34700
X2.27300 Y2.34700
X2.27300 Y2.34600
X2.27200 Y2.34600
